;Recompiled by AnkerMake
;CompileMode: Executable File
;FLAVOR:Marlin
;TIME:4335.69s
;Machine Name:AnkerMake M5
;Filament Name:PLA+ Matte
;Machine Nozzle Size:0.40
;Print Mode:fast
;Profile Name:Easy Mode
;multi_model:true
;damaged:false
;repaired:false
;speed_travel:500
;material_print_temperature:220
;material_print_temperature_layer_0:230
;material_bed_temperature:65
;material_bed_temperature_layer_0:65
;layer_height_0:0.24
;bridge_settings_enabled:true
;bridge_wall_speed:50
;bridge_skin_speed:50
;bridge_skin_speed_2:50
;bridge_skin_speed_3:50
;speed_print:500
;speed_infill:270
;speed_wall:250
;speed_wall_0:150
;speed_wall_x:250
;speed_topbottom:150
;speed_roofing:150
;support_enable:false
;speed_support:250
;speed_support_infill:250
;speed_support_interface:166.667
;speed_support_roof:166.667
;speed_support_bottom:166.667
;speed_layer_0:50
;speed_print_layer_0:50
;speed_travel_layer_0:150
;speed_z_hop:10
;retraction_amount:2
;retraction_retract_speed:60
;retraction_prime_speed:60
;adhesion_type:skirt
;skirt_brim_speed:50
;raft_speed:125
;raft_surface_speed:125
;raft_interface_speed:93.75
;raft_base_speed:93.75
;acceleration_enabled:true
;acceleration_travel:5000
;acceleration_print:5000
;jerk_enabled:true
;jerk_travel:15
;jerk_print:15
;jerk_infill:15
;jerk_wall:15
;jerk_wall_0:15
;jerk_wall_x:15
;jerk_topbottom:15
;jerk_roofing:15
;jerk_support:15
;jerk_support_infill:15
;jerk_support_interface:15
;jerk_support_roof:15
;jerk_support_bottom:15
;jerk_prime_tower:15
;jerk_layer_0:15
;jerk_travel_layer_0:15
;jerk_print_layer_0:15
;jerk_skirt_brim:15
;ak_VAJK_J_E_enabled:true
;ak_J_E_print:3
;ak_J_E_infill:3
;ak_J_E_wall:3
;ak_J_E_wall_0:3
;ak_J_E_wall_x:3
;ak_J_E_topbottom:3
;ak_J_E_support:3
;ak_J_E_skirt_brim:3
;ak_J_E_layer_0:3
;ak_VAJK_K_enabled:false
;ak_K_print:0.05
;ak_K_infill:0.05
;ak_K_wall:0.05
;ak_K_wall_0:0.05
;ak_K_wall_x:0.05
;ak_K_topbottom:0.05
;ak_K_support:0.05
;ak_K_skirt_brim:0.05
;ak_K_layer_0:0.05
;Filament used: 21.0992m
;Filament weight: 62.9294g
;Layer height: 0.3
;MINX:1.838
;MINY:1.2
;MINZ:0.24
;MAXX:234.026
;MAXY:232.184
;MAXZ:25.14
;MAXSPEED:30000
;
;Generated with AnkerSlicer
M4899 T3
M140 S65
M105
M190 S65
M104 S230
M105
M109 S230
G28 ;Home
M82 ;absolute extrusion mode
; config start gcode
M204 S2500
M205 X30 Y30
M205 Z0.3
M205 E5
G92 E0
G92 E0
G1 F3600 E-2
;LAYER_COUNT:84
;LAYER:0
M107
G0 F9000 X49.326 Y52.167 Z0.24;Z_UP:0.24
M205 X15 Y15
M205 E3
;TYPE:SKIRT
G1 F3600 E0
G1 F3000 X51.978 Y50.06 E0.16222
G1 X53.292 Y48.944 E0.24479
G1 X53.482 Y48.807 E0.25601
G1 X54.347 Y48.077 E0.31022
G1 X54.815 Y47.706 E0.33883
G1 X55.066 Y47.52 E0.35379
G1 X55.681 Y47.167 E0.38775
G1 X56.139 Y46.968 E0.41167
G1 X56.418 Y46.857 E0.42605
G1 X56.922 Y46.695 E0.4514
G1 X57.157 Y46.629 E0.46309
G1 X226.255 Y1.529 E8.84508
G1 X226.946 Y1.355 E8.87921
G1 X227.398 Y1.269 E8.90124
G1 X227.549 Y1.248 E8.90855
G1 X227.965 Y1.2 E8.9286
G1 X228.713 Y1.202 E8.96443
G1 X229.372 Y1.281 E8.99622
G1 X229.868 Y1.38 E9.02044
G1 X230.176 Y1.485 E9.03603
G1 X230.59 Y1.65 E9.05737
G1 X230.864 Y1.768 E9.07166
G1 X231.506 Y2.14 E9.1072
G1 X231.954 Y2.476 E9.13402
G1 X232.1 Y2.592 E9.14295
G1 X232.615 Y3.107 E9.17783
G1 X232.952 Y3.534 E9.20388
G1 X233.077 Y3.703 E9.21395
G1 X233.44 Y4.334 E9.24882
G1 X233.676 Y4.882 E9.27739
G1 X233.73 Y5.018 E9.2844
G1 X233.921 Y5.727 E9.31957
G1 X233.993 Y6.21 E9.34296
G1 X234.024 Y6.461 E9.35507
G1 X234.026 Y7.21 E9.39094
G1 X233.952 Y7.834 E9.42104
G1 X233.878 Y8.251 E9.44132
G1 X233.786 Y8.636 E9.46028
G1 X188.265 Y177.748 E17.84813
G1 X188.069 Y178.433 E17.88226
G1 X187.922 Y178.855 E17.90366
G1 X187.858 Y179.012 E17.91178
G1 X187.687 Y179.405 E17.93231
G1 X187.321 Y180.037 E17.96729
G1 X186.953 Y180.53 E17.99675
G1 X186.85 Y180.659 E18.00466
G1 X186.336 Y181.17 E18.03937
G1 X185.352 Y181.949 E18.09948
G1 X184.975 Y182.235 E18.12214
G1 X182.02 Y184.641 E18.30465
G1 X181.529 Y185.057 E18.33547
G1 X180.989 Y185.487 E18.36854
G1 X180.766 Y185.656 E18.38194
G1 X180.132 Y186.022 E18.417
G1 X179.697 Y186.211 E18.43971
G1 X179.392 Y186.333 E18.45545
G1 X178.941 Y186.481 E18.47818
G1 X9.681 Y231.836 E26.87081
G1 X8.925 Y232.027 E26.90816
G1 X8.481 Y232.112 E26.92981
G1 X8.337 Y232.132 E26.93678
G1 X7.902 Y232.183 E26.95775
G1 X7.164 Y232.184 E26.9931
G1 X6.557 Y232.113 E27.02237
G1 X6.442 Y232.097 E27.02793
G1 X5.948 Y231.988 E27.05216
G1 X5.697 Y231.9 E27.0649
G1 X5.166 Y231.687 E27.0923
G1 X5.016 Y231.623 E27.10011
G1 X4.568 Y231.389 E27.12432
G1 X4.359 Y231.245 E27.13647
G1 X3.909 Y230.908 E27.1634
G1 X3.762 Y230.791 E27.1724
G1 X3.251 Y230.279 E27.20704
G1 X2.907 Y229.844 E27.23361
G1 X2.797 Y229.696 E27.24244
G1 X2.429 Y229.061 E27.27759
G1 X2.219 Y228.577 E27.30286
G1 X2.144 Y228.392 E27.31242
G1 X1.946 Y227.667 E27.34841
G1 X1.867 Y227.138 E27.37403
G1 X1.838 Y226.896 E27.3857
G1 X1.839 Y226.175 E27.42024
G1 X1.908 Y225.589 E27.4485
G1 X1.985 Y225.14 E27.47031
G1 X2.069 Y224.79 E27.48755
G1 X2.129 Y224.558 E27.49903
G1 X16.042 Y172.632 E30.07373
G1 X16.103 Y172.422 E30.0842
G1 X16.301 Y171.71 E30.1196
G1 X16.383 Y171.455 E30.13243
G1 X16.623 Y170.811 E30.16534
G1 X17.162 Y169.422 E30.2367
G1 X18.086 Y166.823 E30.36881
G1 X18.923 Y164.239 E30.4989
G1 X19.699 Y161.592 E30.63102
G1 X20.394 Y158.947 E30.762
G1 X21.011 Y156.291 E30.89259
G1 X21.562 Y153.582 E31.025
G1 X22.183 Y149.884 E31.20459
G1 X22.256 Y149.478 E31.22435
G1 X22.347 Y149.101 E31.24292
G1 X27.136 Y131.23 E32.12905
G1 X27.334 Y130.531 E32.16384
G1 X27.419 Y130.273 E32.17685
G1 X27.813 Y129.23 E32.23025
G1 X28.027 Y128.685 E32.25829
G1 X28.947 Y126.141 E32.38786
G1 X29.808 Y123.531 E32.51949
G1 X30.588 Y120.921 E32.64996
G1 X31.303 Y118.255 E32.78216
G1 X31.938 Y115.587 E32.91351
G1 X32.497 Y112.91 E33.04449
G1 X32.973 Y110.244 E33.1742
G1 X33.232 Y108.589 E33.25443
G1 X33.345 Y108.071 E33.27982
G1 X33.407 Y107.827 E33.29188
G1 X47.417 Y55.543 E35.88434
G1 X47.597 Y54.911 E35.91581
G1 X47.753 Y54.465 E35.93844
G1 X47.811 Y54.32 E35.94592
G1 X47.97 Y53.949 E35.96526
G1 X48.346 Y53.297 E36.0013
G1 X48.705 Y52.817 E36.03001
G1 X48.795 Y52.702 E36.03701
G1 X49.326 Y52.167 E36.07311
M204 S5000
G1 F3600 E34.07311
;MESH:mesh8640156224.stl
G0 F9000 X53.908 Y53.363
G0 X54.672 Y53.681
G0 X55.172 Y54.063
G0 X76.697 Y75.561
G0 X75.396 Y76.863
G0 X111.319 Y113.197
G0 X111.093 Y113.422
G1 F3600 E36.07311
M204 S3000
;TYPE:WALL-OUTER
G1 F3000 X109.166 Y114.628 E36.19287
G1 X107.338 Y115.47 E36.2989
G1 X105.417 Y116.07 E36.40493
G1 X103.436 Y116.421 E36.51092
G1 X101.426 Y116.515 E36.61694
G1 X99.421 Y116.353 E36.72291
G1 X97.454 Y115.935 E36.82885
G1 X95.554 Y115.27 E36.93491
G1 X93.756 Y114.367 E37.04091
G1 X92.088 Y113.243 E37.14688
G1 X90.582 Y111.919 E37.25252
G1 X77.011 Y98.347 E38.26369
G1 X75.688 Y96.841 E38.3693
G1 X74.562 Y95.173 E38.47532
G1 X73.659 Y93.375 E38.58132
G1 X72.994 Y91.476 E38.68733
G1 X72.577 Y89.508 E38.79331
G1 X72.414 Y87.503 E38.89929
G1 X72.508 Y85.493 E39.0053
G1 X72.859 Y83.512 E39.11129
G1 X73.459 Y81.592 E39.21727
G1 X74.301 Y79.763 E39.32335
G1 X75.507 Y77.836 E39.44312
G1 X111.093 Y113.422 E42.09451
G0 F9000 X110.894 Y113.429
G0 X111.552 Y113.631
M204 S5000
;TYPE:WALL-INNER
G1 F3000 X111.763 Y113.499 E42.10643
G1 X111.587 Y113.323 E42.11367
G1 X75.606 Y77.342 E44.55078
G1 X75.43 Y77.166 E44.5627
G1 X75.298 Y77.377 E44.56995
G1 X73.932 Y79.56 E44.69328
G1 X73.066 Y81.441 E44.79246
G1 X72.451 Y83.411 E44.89131
G1 X72.09 Y85.447 E44.99034
G1 X71.993 Y87.514 E45.08945
G1 X72.16 Y89.568 E45.18815
G1 X72.587 Y91.585 E45.28689
G1 X73.272 Y93.538 E45.38602
G1 X74.203 Y95.391 E45.48534
G1 X75.354 Y97.099 E45.58398
G1 X76.7 Y98.629 E45.68158
G1 X90.3 Y112.23 E46.60279
G1 X91.83 Y113.577 E46.70042
G1 X93.538 Y114.727 E46.79904
G1 X95.391 Y115.657 E46.89834
G1 X97.345 Y116.342 E46.99751
G1 X99.361 Y116.77 E47.09621
G1 X101.415 Y116.936 E47.19491
G1 X103.482 Y116.839 E47.29402
G1 X105.518 Y116.478 E47.39305
G1 X107.489 Y115.863 E47.49194
G1 X109.369 Y114.997 E47.59107
G1 X111.552 Y113.631 E47.71441
G1 F3600 E45.71441
G0 F9000 X112.079 Y113.535
G0 X113.374 Y112.239
G0 X121.784 Y120.648
G0 X120.489 Y121.944
G0 X120.332 Y122.759
G0 X120.602 Y122.93
G1 F3600 E47.71441
M204 S3000
;TYPE:WALL-OUTER
G1 F3000 X156.187 Y158.516 E50.36576
G1 X154.26 Y159.723 E50.48556
G1 X152.432 Y160.564 E50.59157
G1 X150.512 Y161.164 E50.69754
G1 X148.53 Y161.515 E50.80359
G1 X146.521 Y161.609 E50.90955
G1 X144.515 Y161.447 E51.01557
G1 X142.548 Y161.029 E51.12152
G1 X140.649 Y160.364 E51.22752
G1 X138.851 Y159.461 E51.33352
G1 X137.182 Y158.337 E51.43953
G1 X135.676 Y157.013 E51.54518
G1 X122.105 Y143.441 E52.55634
G1 X120.781 Y141.936 E52.66195
G1 X119.657 Y140.267 E52.76796
G1 X118.754 Y138.469 E52.87396
G1 X118.089 Y136.57 E52.97996
G1 X117.671 Y134.602 E53.08596
G1 X117.508 Y132.597 E53.19194
G1 X117.603 Y130.588 E53.2979
G1 X117.953 Y128.606 E53.40393
G1 X118.554 Y126.686 E53.50993
G1 X119.395 Y124.858 E53.61594
G1 X120.602 Y122.93 E53.73578
G0 F9000 X120.653 Y123.122
G0 X120.701 Y122.436
M204 S5000
;TYPE:WALL-INNER
G1 F3000 X120.525 Y122.26 E53.7477
G1 X120.393 Y122.471 E53.75494
G1 X119.026 Y124.655 E53.87834
G1 X118.161 Y126.535 E53.97746
G1 X117.545 Y128.505 E54.07632
G1 X117.185 Y130.542 E54.17539
G1 X117.087 Y132.608 E54.27445
G1 X117.253 Y134.658 E54.37296
G1 X117.682 Y136.679 E54.47191
G1 X118.367 Y138.632 E54.57103
G1 X119.297 Y140.485 E54.67033
G1 X120.447 Y142.194 E54.76899
G1 X121.794 Y143.723 E54.86659
G1 X135.394 Y157.324 E55.78779
G1 X136.924 Y158.671 E55.88542
G1 X138.633 Y159.821 E55.98408
G1 X140.486 Y160.751 E56.08338
G1 X142.439 Y161.436 E56.1825
G1 X144.455 Y161.864 E56.28121
G1 X146.51 Y162.03 E56.37996
G1 X148.576 Y161.933 E56.47902
G1 X150.613 Y161.572 E56.5781
G1 X152.583 Y160.957 E56.67694
G1 X154.463 Y160.092 E56.77606
G1 X156.646 Y158.725 E56.89942
G1 X156.857 Y158.593 E56.91134
G1 X156.681 Y158.417 E56.91858
G1 X120.701 Y122.436 E59.35566
G1 F3600 E57.35566
G0 F9000 X119.166 Y124.734
G0 X118.311 Y126.593
G0 X117.701 Y128.545
G0 X117.345 Y130.56
G0 X117.249 Y132.601
G0 X117.382 Y134.251
G0 X118.191 Y138.707
G0 X119.575 Y138.123
G0 X118.275 Y142.97
G0 X146.012 Y170.811
G0 X145.191 Y173.922
G0 X107.239 Y184.166
G0 X105.942 Y189.012
G0 X105.029 Y187.818
G0 X102.325 Y190.951
G0 X101.162 Y192.635
G0 X100.224 Y194.452
G0 X99.525 Y196.374
G0 X99.078 Y198.37
G0 X98.927 Y200.019
G0 X98.912 Y202.695
G0 X99.231 Y202.686
G1 F3600 E59.35566
M204 S3000
;TYPE:WALL-OUTER
G1 F3000 X99.15 Y200.414 E59.47543
G1 X99.335 Y198.41 E59.58146
G1 X99.775 Y196.447 E59.68744
G1 X100.462 Y194.556 E59.79344
G1 X101.385 Y192.768 E59.89945
G1 X102.529 Y191.112 E60.00549
G1 X103.875 Y189.616 E60.11151
G1 X105.4 Y188.305 E60.21746
G1 X107.081 Y187.199 E60.32347
G1 X108.889 Y186.317 E60.42946
G1 X110.788 Y185.675 E60.53507
G1 X129.328 Y180.708 E61.54627
G1 X131.294 Y180.314 E61.65191
G1 X133.301 Y180.174 E61.7579
G1 X135.309 Y180.291 E61.86387
G1 X137.287 Y180.664 E61.96992
G1 X139.199 Y181.286 E62.07585
G1 X141.018 Y182.148 E62.18189
G1 X142.711 Y183.235 E62.28789
G1 X144.251 Y184.53 E62.3939
G1 X145.613 Y186.009 E62.49982
G1 X146.776 Y187.652 E62.60587
G1 X147.842 Y189.661 E62.72569
G1 X99.231 Y202.686 E65.37706
G0 F9000 X99.324 Y202.511
G0 X98.822 Y202.978
M204 S5000
;TYPE:WALL-INNER
G1 F3000 X98.83 Y203.227 E65.38899
G1 X99.071 Y203.163 E65.39626
G1 X148.219 Y189.993 E67.83323
G1 X148.46 Y189.929 E67.84517
G1 X148.343 Y189.709 E67.85243
G1 X147.137 Y187.436 E67.97567
G1 X145.939 Y185.744 E68.07496
G1 X144.541 Y184.225 E68.17384
G1 X142.96 Y182.896 E68.27276
G1 X141.223 Y181.78 E68.37164
G1 X139.352 Y180.894 E68.47079
G1 X137.392 Y180.257 E68.5695
G1 X135.364 Y179.873 E68.66836
G1 X133.291 Y179.753 E68.76781
G1 X131.244 Y179.896 E68.86609
G1 X129.236 Y180.299 E68.96418
G1 X110.66 Y185.274 E69.88522
G1 X108.733 Y185.926 E69.98265
G1 X106.874 Y186.833 E70.08172
G1 X105.144 Y187.971 E70.1809
G1 X103.583 Y189.313 E70.27949
G1 X102.198 Y190.852 E70.37866
G1 X101.022 Y192.554 E70.47774
G1 X100.078 Y194.383 E70.57632
G1 X99.371 Y196.328 E70.67544
G1 X98.918 Y198.347 E70.77454
G1 X98.729 Y200.4 E70.87328
G1 X98.822 Y202.978 E70.99683
G1 F3600 E68.99683
G0 F9000 X98.641 Y203.482
G0 X99.116 Y205.252
G0 X87.616 Y208.333
G0 X87.14 Y206.558
G0 X37.398 Y219.508
G0 X37.312 Y219.201
G0 X37.631 Y219.192
G1 F3600 E70.99683
M204 S3000
;TYPE:WALL-OUTER
G1 F3000 X37.55 Y216.919 E71.11666
G1 X37.735 Y214.916 E71.22264
G1 X38.175 Y212.952 E71.32867
G1 X38.862 Y211.062 E71.43462
G1 X39.785 Y209.274 E71.54063
G1 X40.929 Y207.618 E71.64667
G1 X42.275 Y206.122 E71.75269
G1 X43.8 Y204.811 E71.85864
G1 X45.481 Y203.704 E71.96468
G1 X47.289 Y202.823 E72.07064
G1 X49.189 Y202.181 E72.1763
G1 X67.728 Y197.214 E73.18746
G1 X69.694 Y196.82 E73.29309
G1 X71.701 Y196.68 E73.39909
G1 X73.709 Y196.797 E73.50506
G1 X75.687 Y197.169 E73.61109
G1 X77.6 Y197.792 E73.71709
G1 X79.418 Y198.654 E73.82309
G1 X81.111 Y199.74 E73.92906
G1 X82.651 Y201.035 E74.03506
G1 X84.013 Y202.515 E74.14103
G1 X85.176 Y204.157 E74.24703
G1 X86.242 Y206.167 E74.3669
G1 X37.631 Y219.192 E77.01826
G0 F9000 X37.724 Y219.017
G0 X37.222 Y219.484
M204 S5000
;TYPE:WALL-INNER
G1 F3000 X37.23 Y219.733 E77.0302
G1 X37.471 Y219.669 E77.03746
G1 X86.619 Y206.499 E79.47443
G1 X86.86 Y206.435 E79.48638
G1 X86.743 Y206.215 E79.49364
G1 X85.537 Y203.941 E79.61692
G1 X84.34 Y202.25 E79.71615
G1 X82.941 Y200.731 E79.81505
G1 X81.36 Y199.401 E79.914
G1 X79.623 Y198.286 E80.01286
G1 X77.753 Y197.4 E80.11197
G1 X75.792 Y196.762 E80.21074
G1 X73.764 Y196.379 E80.30958
G1 X71.691 Y196.259 E80.40904
G1 X69.644 Y196.402 E80.50731
G1 X67.636 Y196.805 E80.6054
G1 X49.061 Y201.78 E81.5264
G1 X47.133 Y202.432 E81.62388
G1 X45.274 Y203.338 E81.72293
G1 X43.544 Y204.477 E81.82213
G1 X41.983 Y205.819 E81.92073
G1 X40.598 Y207.358 E82.01989
G1 X39.426 Y209.054 E82.11863
G1 X38.476 Y210.896 E82.21789
G1 X37.771 Y212.833 E82.31662
G1 X37.318 Y214.853 E82.41577
G1 X37.129 Y216.905 E82.51446
G1 X37.222 Y219.484 E82.63806
G1 F3600 E80.63806
G0 F9000 X36.938 Y216.899
G0 X38.44 Y216.938
G0 X31.546 Y204.301
G0 Y205.815
G0 X30.702 Y205.388
G0 X29.427 Y204.655
G0 X29.621 Y204.402
G1 F3600 E82.63806
M204 S3000
;TYPE:WALL-OUTER
G1 F3000 X29.189 Y203.838 E82.67549
G1 X28.917 Y203.181 E82.71295
G1 X28.824 Y202.477 E82.75036
G1 X28.915 Y201.787 E82.78703
G1 X59.256 Y88.551 E88.9632
G1 X59.523 Y87.908 E88.99988
G1 X59.956 Y87.344 E89.03735
G1 X60.519 Y86.912 E89.07473
G1 X61.176 Y86.64 E89.11219
G1 X61.88 Y86.547 E89.14961
G1 X62.584 Y86.64 E89.18702
G1 X63.241 Y86.912 E89.22448
G1 X63.793 Y87.335 E89.26112
G1 X146.688 Y170.23 E95.43734
G1 X147.112 Y170.782 E95.47401
G1 X147.384 Y171.439 E95.51147
G1 X147.477 Y172.143 E95.54888
G1 X147.384 Y172.847 E95.58629
G1 X147.112 Y173.504 E95.62375
G1 X146.679 Y174.068 E95.66122
G1 X146.116 Y174.5 E95.6986
G1 X145.473 Y174.767 E95.73528
G1 X32.236 Y205.108 E101.91151
G1 X31.546 Y205.199 E101.94817
G1 X30.842 Y205.106 E101.98559
G1 X30.185 Y204.834 E102.02305
G1 X29.621 Y204.402 E102.06048
G0 F9000 X29.596 Y204.205
G0 X29.321 Y204.702
M204 S5000
;TYPE:WALL-INNER
G1 F3000 X29.976 Y205.202 E102.09994
G1 X30.732 Y205.515 E102.13913
G1 X31.546 Y205.623 E102.17846
G1 X32.314 Y205.521 E102.21557
G1 X145.614 Y175.163 E107.83344
G1 X146.326 Y174.868 E107.87035
G1 X146.98 Y174.366 E107.90984
G1 X147.479 Y173.717 E107.94905
G1 X147.793 Y172.957 E107.98843
G1 X147.901 Y172.143 E108.02776
G1 X147.793 Y171.329 E108.06709
G1 X147.479 Y170.57 E108.10643
G1 X147.009 Y169.958 E108.14339
G1 X64.069 Y87.018 E113.76118
G1 X63.451 Y86.544 E113.79848
G1 X62.694 Y86.231 E113.83771
G1 X61.88 Y86.123 E113.87704
G1 X61.066 Y86.231 E113.91637
G1 X60.309 Y86.544 E113.9556
G1 X59.655 Y87.046 E113.99509
G1 X59.156 Y87.696 E114.03434
G1 X58.86 Y88.41 E114.07135
G1 X28.502 Y201.709 E119.68918
G1 X28.4 Y202.477 E119.72629
G1 X28.508 Y203.291 E119.76562
G1 X28.821 Y204.047 E119.8048
G1 X29.321 Y204.702 E119.84427
G1 F3600 E117.84427
G0 F9000 X28.665 Y203.248
G0 X28.562 Y202.477
G0 X28.641 Y201.878
G0 X52.133 Y112.781
G0 X51.446 Y112.598
G0 X53.567 Y104.755
G0 X53.966 Y102.764
G0 X54.109 Y100.724
G0 X53.99 Y98.683
