;Recompiled by AnkerMake
;CompileMode: Executable File
;FLAVOR:Marlin
;TIME:4503.33s
;Machine Name:AnkerMake M5
;Filament Name:PLA+ Matte
;Machine Nozzle Size:0.40
;Print Mode:fast
;Profile Name:Easy Mode
;multi_model:true
;damaged:false
;repaired:false
;speed_travel:500
;material_print_temperature:220
;material_print_temperature_layer_0:230
;material_bed_temperature:65
;material_bed_temperature_layer_0:65
;layer_height_0:0.24
;bridge_settings_enabled:true
;bridge_wall_speed:50
;bridge_skin_speed:50
;bridge_skin_speed_2:50
;bridge_skin_speed_3:50
;speed_print:500
;speed_infill:270
;speed_wall:250
;speed_wall_0:150
;speed_wall_x:250
;speed_topbottom:150
;speed_roofing:150
;support_enable:false
;speed_support:250
;speed_support_infill:250
;speed_support_interface:166.667
;speed_support_roof:166.667
;speed_support_bottom:166.667
;speed_layer_0:50
;speed_print_layer_0:50
;speed_travel_layer_0:150
;speed_z_hop:10
;retraction_amount:2
;retraction_retract_speed:60
;retraction_prime_speed:60
;adhesion_type:skirt
;skirt_brim_speed:50
;raft_speed:125
;raft_surface_speed:125
;raft_interface_speed:93.75
;raft_base_speed:93.75
;acceleration_enabled:true
;acceleration_travel:5000
;acceleration_print:5000
;jerk_enabled:true
;jerk_travel:15
;jerk_print:15
;jerk_infill:15
;jerk_wall:15
;jerk_wall_0:15
;jerk_wall_x:15
;jerk_topbottom:15
;jerk_roofing:15
;jerk_support:15
;jerk_support_infill:15
;jerk_support_interface:15
;jerk_support_roof:15
;jerk_support_bottom:15
;jerk_prime_tower:15
;jerk_layer_0:15
;jerk_travel_layer_0:15
;jerk_print_layer_0:15
;jerk_skirt_brim:15
;ak_VAJK_J_E_enabled:true
;ak_J_E_print:3
;ak_J_E_infill:3
;ak_J_E_wall:3
;ak_J_E_wall_0:3
;ak_J_E_wall_x:3
;ak_J_E_topbottom:3
;ak_J_E_support:3
;ak_J_E_skirt_brim:3
;ak_J_E_layer_0:3
;ak_VAJK_K_enabled:false
;ak_K_print:0.05
;ak_K_infill:0.05
;ak_K_wall:0.05
;ak_K_wall_0:0.05
;ak_K_wall_x:0.05
;ak_K_topbottom:0.05
;ak_K_support:0.05
;ak_K_skirt_brim:0.05
;ak_K_layer_0:0.05
;Filament used: 20.0698m
;Filament weight: 59.8592g
;Layer height: 0.3
;MINX:0.217
;MINY:2.401
;MINZ:0.24
;MAXX:232.777
;MAXY:234.234
;MAXZ:25.14
;MAXSPEED:30000
;
;Generated with AnkerSlicer
M4899 T3
M140 S65
M105
M190 S65
M104 S230
M105
M109 S230
G28 ;Home
M82 ;absolute extrusion mode
; config start gcode
M204 S2500
M205 X30 Y30
M205 Z0.3
M205 E5
G92 E0
G92 E0
G1 F3600 E-2
;LAYER_COUNT:84
;LAYER:0
M107
G0 F9000 X52.418 Y48.532 Z0.24;Z_UP:0.24
M205 X15 Y15
M205 E3
;TYPE:SKIRT
G1 F3600 E0
G1 F3000 X52.934 Y48.026 E0.03461
G1 X53.33 Y47.717 E0.05867
G1 X53.551 Y47.554 E0.07182
G1 X54.175 Y47.201 E0.10616
G1 X54.555 Y47.039 E0.12594
G1 X54.899 Y46.905 E0.14363
G1 X55.386 Y46.751 E0.16809
G1 X55.655 Y46.678 E0.18144
G1 X107.982 Y33.098 E2.77064
G1 X108.693 Y32.923 E2.80571
G1 X108.964 Y32.868 E2.81896
G1 X110.064 Y32.697 E2.87227
G1 X110.546 Y32.63 E2.89558
G1 X113.246 Y32.172 E3.02674
G1 X115.933 Y31.638 E3.15795
G1 X118.608 Y31.026 E3.28938
G1 X121.255 Y30.343 E3.42031
G1 X123.862 Y29.59 E3.55027
G1 X126.52 Y28.739 E3.68394
G1 X129.073 Y27.843 E3.81353
G1 X130.704 Y27.229 E3.897
G1 X130.935 Y27.152 E3.90866
G1 X131.356 Y27.031 E3.92964
G1 X149.257 Y22.385 E4.81541
G1 X149.947 Y22.217 E4.84942
G1 X150.211 Y22.164 E4.86232
G1 X151.331 Y21.99 E4.9166
G1 X151.846 Y21.917 E4.94151
G1 X154.581 Y21.451 E5.07439
G1 X157.258 Y20.915 E5.20515
G1 X159.901 Y20.309 E5.33502
G1 X162.572 Y19.618 E5.46716
G1 X165.209 Y18.853 E5.59867
G1 X167.804 Y18.021 E5.72918
G1 X170.42 Y17.1 E5.86201
G1 X171.933 Y16.528 E5.93948
G1 X172.175 Y16.447 E5.95171
G1 X172.51 Y16.35 E5.96841
G1 X225.032 Y2.719 E8.56727
G1 X225.729 Y2.549 E8.60163
G1 X226.211 Y2.462 E8.62509
G1 X226.365 Y2.442 E8.63252
G1 X226.744 Y2.401 E8.65078
G1 X227.473 Y2.405 E8.6857
G1 X228.111 Y2.483 E8.71648
G1 X228.195 Y2.495 E8.72055
G1 X228.688 Y2.606 E8.74475
G1 X228.944 Y2.697 E8.75776
G1 X229.445 Y2.9 E8.78365
G1 X229.668 Y2.998 E8.79532
G1 X230.285 Y3.364 E8.82968
G1 X230.744 Y3.713 E8.85729
G1 X230.871 Y3.815 E8.8651
G1 X231.391 Y4.343 E8.90059
G1 X231.749 Y4.804 E8.92854
G1 X231.849 Y4.941 E8.93667
G1 X232.209 Y5.576 E8.97163
G1 X232.393 Y6.009 E8.99416
G1 X232.489 Y6.253 E9.00672
G1 X232.672 Y6.956 E9.04151
G1 X232.751 Y7.512 E9.06841
G1 X232.777 Y7.737 E9.07926
G1 X232.771 Y8.465 E9.11412
G1 X232.714 Y8.929 E9.13651
G1 X232.668 Y9.233 E9.15124
G1 X232.554 Y9.749 E9.17655
G1 X232.485 Y10.008 E9.18939
G1 X218.083 Y62.113 E11.77851
G1 X217.876 Y62.823 E11.81393
G1 X217.789 Y63.08 E11.82693
G1 X217.333 Y64.26 E11.88751
G1 X217.141 Y64.74 E11.91227
G1 X216.184 Y67.329 E12.04447
G1 X215.317 Y69.9 E12.17442
G1 X214.509 Y72.539 E12.30661
G1 X213.788 Y75.158 E12.43671
G1 X213.13 Y77.838 E12.56888
G1 X212.547 Y80.542 E12.70136
G1 X212.055 Y83.197 E12.83069
G1 X211.807 Y84.714 E12.90431
G1 X211.757 Y84.96 E12.91633
G1 X211.66 Y85.349 E12.93553
G1 X206.733 Y103.183 E13.82168
G1 X206.527 Y103.888 E13.85686
G1 X206.44 Y104.144 E13.86981
G1 X206.025 Y105.215 E13.92482
G1 X205.844 Y105.663 E13.94796
G1 X204.9 Y108.207 E14.07793
G1 X203.998 Y110.868 E14.2125
G1 X203.208 Y113.433 E14.34104
G1 X202.477 Y116.073 E14.47224
G1 X201.82 Y118.731 E14.60338
G1 X201.229 Y121.445 E14.73641
G1 X200.725 Y124.145 E14.86796
G1 X200.491 Y125.565 E14.93688
G1 X200.404 Y126.042 E14.96011
G1 X200.296 Y126.47 E14.98125
G1 X185.866 Y178.673 E17.57525
G1 X185.66 Y179.376 E17.61034
G1 X185.521 Y179.769 E17.6303
G1 X185.459 Y179.92 E17.63812
G1 X185.279 Y180.328 E17.65948
G1 X184.906 Y180.962 E17.69471
G1 X184.537 Y181.45 E17.72401
G1 X184.364 Y181.662 E17.73712
G1 X183.942 Y182.155 E17.7682
G1 X182.194 Y184.26 E17.89924
G1 X181.155 Y185.601 E17.98049
G1 X181.099 Y185.663 E17.9845
G1 X180.253 Y186.729 E18.04968
G1 X179.737 Y187.245 E18.08463
G1 X179.29 Y187.599 E18.11194
G1 X179.146 Y187.706 E18.12053
G1 X178.512 Y188.072 E18.15559
G1 X178.077 Y188.261 E18.1783
G1 X177.772 Y188.383 E18.19404
G1 X177.321 Y188.531 E18.21677
G1 X8.06 Y233.886 E26.60945
G1 X7.304 Y234.077 E26.6468
G1 X6.86 Y234.162 E26.66845
G1 X6.717 Y234.182 E26.67537
G1 X6.284 Y234.233 E26.69625
G1 X5.545 Y234.234 E26.73164
G1 X4.931 Y234.162 E26.76125
G1 X4.799 Y234.143 E26.76764
G1 X4.071 Y233.949 E26.80372
G1 X3.629 Y233.773 E26.82651
G1 X3.378 Y233.665 E26.83959
G1 X2.747 Y233.299 E26.87453
G1 X2.273 Y232.945 E26.90287
G1 X2.134 Y232.834 E26.91139
G1 X1.627 Y232.325 E26.94579
G1 X1.302 Y231.914 E26.97089
G1 X1.171 Y231.737 E26.98144
G1 X0.811 Y231.115 E27.01586
G1 X0.609 Y230.653 E27.04001
G1 X0.52 Y230.434 E27.05133
G1 X0.327 Y229.722 E27.08666
G1 X0.246 Y229.183 E27.11276
G1 X0.217 Y228.943 E27.12434
G1 X0.218 Y228.227 E27.15864
G1 X0.286 Y227.642 E27.18684
G1 X0.364 Y227.188 E27.20891
G1 X0.442 Y226.865 E27.22482
G1 X0.498 Y226.644 E27.23574
G1 X14.421 Y174.683 E29.81218
G1 X14.482 Y174.473 E29.82266
G1 X14.68 Y173.761 E29.85805
G1 X14.763 Y173.505 E29.87094
G1 X15.012 Y172.833 E29.90526
G1 X15.571 Y171.391 E29.97933
G1 X16.463 Y168.88 E30.10696
G1 X17.316 Y166.242 E30.23975
G1 X18.088 Y163.608 E30.37121
G1 X18.777 Y160.981 E30.50128
G1 X19.4 Y158.302 E30.63302
G1 X19.944 Y155.619 E30.76413
G1 X20.56 Y151.951 E30.94227
G1 X20.636 Y151.528 E30.96285
G1 X20.727 Y151.151 E30.98143
G1 X25.516 Y133.28 E31.86755
G1 X25.714 Y132.581 E31.90235
G1 X25.799 Y132.324 E31.91531
G1 X26.216 Y131.219 E31.97188
G1 X26.434 Y130.664 E32.00044
G1 X27.367 Y128.074 E32.13229
G1 X28.218 Y125.482 E32.26295
G1 X28.998 Y122.862 E32.39388
G1 X29.705 Y120.215 E32.5251
G1 X30.339 Y117.535 E32.657
G1 X30.894 Y114.867 E32.78752
G1 X31.587 Y110.797 E32.98525
G1 X31.663 Y110.373 E33.00589
G1 X31.754 Y109.996 E33.02446
G1 X45.804 Y57.566 E35.62417
G1 X45.976 Y56.962 E35.65425
G1 X46.129 Y56.524 E35.67647
G1 X46.194 Y56.362 E35.68483
G1 X46.362 Y55.976 E35.705
G1 X46.725 Y55.348 E35.73974
G1 X47.069 Y54.885 E35.76736
G1 X47.311 Y54.588 E35.78571
G1 X48.148 Y53.649 E35.84596
G1 X49.966 Y51.549 E35.97899
G1 X52.418 Y48.532 E36.16519
M204 S5000
G1 F3600 E34.16519
;MESH:mesh8641643072.stl
G0 F9000 X53.59 Y53.101
G0 X53.899 Y53.865
G0 X54.279 Y54.372
G0 X120.342 Y121.511
G0 X121.646 Y120.226
G0 X122.404 Y120.571
G0 X122.632 Y120.347
G1 F3600 E36.16519
M204 S3000
;TYPE:WALL-OUTER
G1 F3000 X124.57 Y119.155 E36.28506
G1 X126.405 Y118.329 E36.39108
G1 X128.329 Y117.743 E36.49704
G1 X130.313 Y117.408 E36.60305
G1 X132.324 Y117.33 E36.70907
G1 X134.328 Y117.508 E36.81507
G1 X136.292 Y117.941 E36.92102
G1 X138.186 Y118.622 E37.02706
G1 X139.977 Y119.538 E37.13304
G1 X141.636 Y120.676 E37.23903
G1 X143.131 Y122.012 E37.34466
G1 X156.595 Y135.69 E38.35582
G1 X157.908 Y137.206 E38.46148
G1 X159.019 Y138.882 E38.56742
G1 X159.908 Y140.688 E38.67347
G1 X160.558 Y142.591 E38.77941
G1 X160.96 Y144.563 E38.88544
G1 X161.107 Y146.57 E38.99146
G1 X160.997 Y148.578 E39.09741
G1 X160.631 Y150.557 E39.20344
G1 X160.015 Y152.472 E39.30942
G1 X159.159 Y154.293 E39.41543
G1 X157.937 Y156.211 E39.53525
G1 X122.632 Y120.347 E42.1866
G0 F9000 X122.831 Y120.342
G0 X122.174 Y120.134
M204 S5000
;TYPE:WALL-INNER
G1 F3000 X121.962 Y120.265 E42.19854
G1 X122.137 Y120.443 E42.20583
G1 X157.833 Y156.704 E44.64284
G1 X158.008 Y156.882 E44.6548
G1 X158.142 Y156.672 E44.66205
G1 X159.528 Y154.494 E44.7857
G1 X160.409 Y152.622 E44.88479
G1 X161.039 Y150.662 E44.98339
G1 X161.414 Y148.633 E45.08222
G1 X161.528 Y146.56 E45.18165
G1 X161.378 Y144.512 E45.28
G1 X160.963 Y142.476 E45.37952
G1 X160.296 Y140.525 E45.47828
G1 X159.383 Y138.671 E45.57726
G1 X158.246 Y136.953 E45.67593
G1 X156.908 Y135.41 E45.77374
G1 X143.426 Y121.712 E46.69427
G1 X141.891 Y120.34 E46.79287
G1 X140.197 Y119.179 E46.89123
G1 X138.352 Y118.236 E46.99047
G1 X136.411 Y117.537 E47.08928
G1 X134.39 Y117.092 E47.18839
G1 X132.337 Y116.909 E47.28711
G1 X130.269 Y116.989 E47.38623
G1 X128.228 Y117.334 E47.48537
G1 X126.263 Y117.933 E47.58376
G1 X124.368 Y118.785 E47.68327
G1 X122.174 Y120.134 E47.80662
G1 F3600 E45.80662
G0 F9000 X121.646 Y120.226
G0 X120.342 Y121.511
G0 X111.992 Y113.028
G0 X113.301 Y111.738
G0 X77.666 Y75.123
G0 X77.894 Y74.899
G1 F3600 E47.80662
M204 S3000
;TYPE:WALL-OUTER
G1 F3000 X79.832 Y73.708 E47.92646
G1 X81.666 Y72.881 E48.03245
G1 X83.59 Y72.295 E48.13842
G1 X85.574 Y71.961 E48.24441
G1 X87.585 Y71.882 E48.35044
G1 X89.59 Y72.06 E48.45649
G1 X91.554 Y72.493 E48.56244
G1 X93.448 Y73.174 E48.66848
G1 X95.239 Y74.091 E48.77449
G1 X96.898 Y75.229 E48.88048
G1 X98.393 Y76.565 E48.98611
G1 X111.857 Y90.242 E49.99723
G1 X113.17 Y91.758 E50.10289
G1 X114.281 Y93.435 E50.20887
G1 X115.17 Y95.241 E50.31492
G1 X115.82 Y97.144 E50.42087
G1 X116.222 Y99.115 E50.52684
G1 X116.369 Y101.122 E50.63286
G1 X116.259 Y103.131 E50.73887
G1 X115.893 Y105.109 E50.84484
G1 X115.276 Y107.025 E50.95089
G1 X114.421 Y108.845 E51.05683
G1 X113.199 Y110.764 E51.17669
G1 X77.894 Y74.899 E53.82808
G0 F9000 X78.093 Y74.894
G0 X77.436 Y74.687
M204 S5000
;TYPE:WALL-INNER
G1 F3000 X77.224 Y74.817 E53.83999
G1 X77.398 Y74.994 E53.84723
G1 X77.399 Y74.995 E53.8473
G1 X113.095 Y111.257 E56.28435
G1 X113.27 Y111.435 E56.2963
G1 X113.404 Y111.225 E56.30356
G1 X114.79 Y109.046 E56.42725
G1 X115.67 Y107.175 E56.52628
G1 X116.301 Y105.214 E56.62494
G1 X116.676 Y103.186 E56.72372
G1 X116.79 Y101.112 E56.8232
G1 X116.64 Y99.064 E56.92155
G1 X116.225 Y97.029 E57.02102
G1 X115.558 Y95.078 E57.11977
G1 X114.645 Y93.224 E57.21875
G1 X113.507 Y91.505 E57.31749
G1 X112.17 Y89.962 E57.41528
G1 X98.688 Y76.265 E58.33576
G1 X97.153 Y74.893 E58.43437
G1 X95.459 Y73.732 E58.53273
G1 X93.614 Y72.788 E58.63199
G1 X91.673 Y72.089 E58.7308
G1 X89.652 Y71.644 E58.82991
G1 X87.598 Y71.461 E58.92868
G1 X85.53 Y71.542 E59.0278
G1 X83.489 Y71.886 E59.12693
G1 X81.523 Y72.485 E59.22536
G1 X79.63 Y73.338 E59.32481
G1 X77.436 Y74.687 E59.44816
G1 F3600 E57.44816
G0 F9000 X79.54 Y73.169
G0 X80.253 Y74.494
G0 X87.847 Y62.264
G0 X86.532 Y63.012
G0 X86.45 Y61.339
G0 X86.558 Y60.569
G0 X86.804 Y59.989
G0 X87.272 Y59.226
G0 X87.524 Y59.423
G1 F3600 E59.44816
M204 S3000
;TYPE:WALL-OUTER
G1 F3000 X88.092 Y58.995 E59.48563
G1 X88.737 Y58.734 E59.52229
G1 X202.209 Y29.283 E65.69853
G1 X202.899 Y29.198 E65.73515
G1 X203.603 Y29.296 E65.7726
G1 X204.258 Y29.574 E65.81009
G1 X204.817 Y30.01 E65.84744
G1 X205.246 Y30.577 E65.8849
G1 X205.513 Y31.236 E65.92236
G1 X205.6 Y31.941 E65.95978
G1 X205.503 Y32.631 E65.99649
G1 X174.272 Y145.625 E72.17268
G1 X174 Y146.265 E72.20931
G1 X173.564 Y146.826 E72.24674
G1 X172.996 Y147.254 E72.28421
G1 X172.338 Y147.521 E72.32162
G1 X171.632 Y147.608 E72.3591
G1 X170.929 Y147.51 E72.3965
G1 X170.275 Y147.232 E72.43393
G1 X169.725 Y146.805 E72.47062
G1 X87.486 Y63.26 E78.6468
G1 X87.066 Y62.705 E78.68347
G1 X86.799 Y62.047 E78.72088
G1 X86.712 Y61.341 E78.75836
G1 X86.81 Y60.638 E78.79575
G1 X87.088 Y59.984 E78.83319
G1 X87.524 Y59.423 E78.87063
G0 F9000 X87.721 Y59.399
G0 X87.228 Y59.121
M204 S5000
;TYPE:WALL-INNER
G1 F3000 X86.722 Y59.772 E78.91012
G1 X86.402 Y60.523 E78.94921
G1 X86.289 Y61.339 E78.98867
G1 X86.388 Y62.151 E79.02785
G1 X86.699 Y62.916 E79.0674
G1 X87.167 Y63.534 E79.10453
G1 X169.444 Y147.118 E84.72185
G1 X170.063 Y147.598 E84.75936
G1 X170.814 Y147.918 E84.79846
G1 X171.63 Y148.031 E84.83792
G1 X172.442 Y147.932 E84.8771
G1 X173.205 Y147.622 E84.91654
G1 X173.86 Y147.128 E84.95583
G1 X174.366 Y146.477 E84.99532
G1 X174.669 Y145.767 E85.0323
G1 X205.915 Y32.717 E90.64979
G1 X206.024 Y31.942 E90.68727
G1 X205.924 Y31.132 E90.72636
G1 X205.612 Y30.364 E90.76606
G1 X205.12 Y29.714 E90.8051
G1 X204.47 Y29.208 E90.84456
G1 X203.718 Y28.888 E90.8837
G1 X202.901 Y28.775 E90.9232
G1 X202.133 Y28.869 E90.96026
G1 X88.604 Y58.335 E96.57784
G1 X87.884 Y58.626 E96.61504
G1 X87.228 Y59.121 E96.6544
G1 F3600 E94.6544
G0 F9000 X88.656 Y58.488
G0 X95.541 Y56.733
G0 X115.921 Y51.028
G0 X115.742 Y50.341
G0 X104.984 Y53.174
G0 X102.993 Y53.556
G0 X100.952 Y53.682
G0 X98.909 Y53.547
G0 X96.904 Y53.151
G0 X94.963 Y52.504
G0 X93.121 Y51.613
G0 X91.41 Y50.494
G0 X89.854 Y49.166
G0 X88.482 Y47.65
G0 X87.311 Y45.972
G0 X86.125 Y43.66
G0 X112.231 Y36.808
G0 X112.451 Y36.503
G1 F3600 E96.6544
M204 S3000
;TYPE:WALL-OUTER
G1 F3000 X112.592 Y37.045 E96.6839
G1 X86.484 Y43.82 E98.10494
G1 X87.534 Y45.838 E98.22478
G1 X88.685 Y47.489 E98.33081
G1 X90.035 Y48.98 E98.43678
G1 X91.565 Y50.286 E98.54276
G1 X93.249 Y51.387 E98.64876
G1 X95.061 Y52.263 E98.75479
G1 X96.97 Y52.9 E98.86082
G1 X98.943 Y53.289 E98.96677
G1 X100.952 Y53.422 E99.07284
G1 X102.96 Y53.298 E99.17883
G1 X104.928 Y52.92 E99.28441
G1 X123.505 Y48.098 E100.29555
G1 X125.41 Y47.472 E100.4012
G1 X127.225 Y46.603 E100.50721
G1 X128.914 Y45.51 E100.6132
G1 X130.451 Y44.211 E100.71922
G1 X131.808 Y42.726 E100.82521
G1 X132.965 Y41.08 E100.9312
G1 X133.901 Y39.299 E101.0372
G1 X134.603 Y37.414 E101.14318
G1 X135.058 Y35.454 E101.24918
G1 X135.26 Y33.452 E101.35519
G1 X135.196 Y31.179 E101.47499
G1 X129.577 Y32.637 E101.78082
G1 X129.435 Y32.095 E101.81034
G1 X132.339 Y31.342 E101.9684
G1 X132.088 Y30.374 E102.02108
G1 X150.537 Y25.585 E103.02526
G1 X150.788 Y26.553 E103.07795
G1 X153.692 Y25.799 E103.23602
G1 X153.833 Y26.341 E103.26552
G1 X148.212 Y27.8 E103.57147
G1 X149.262 Y29.818 E103.69132
G1 X150.412 Y31.469 E103.79732
G1 X151.762 Y32.96 E103.90329
G1 X153.293 Y34.266 E104.00931
G1 X154.978 Y35.367 E104.11535
G1 X156.789 Y36.242 E104.22131
G1 X158.698 Y36.88 E104.32735
G1 X160.671 Y37.269 E104.4333
G1 X162.678 Y37.401 E104.53927
G1 X164.687 Y37.278 E104.64531
G1 X166.656 Y36.899 E104.75095
G1 X185.233 Y32.077 E105.76209
G1 X187.138 Y31.451 E105.86773
G1 X188.953 Y30.582 E105.97375
G1 X190.642 Y29.49 E106.07971
G1 X192.179 Y28.191 E106.18573
G1 X193.536 Y26.705 E106.29175
G1 X194.692 Y25.059 E106.39772
G1 X195.629 Y23.279 E106.5037
G1 X196.331 Y21.393 E106.60972
G1 X196.786 Y19.433 E106.71573
G1 X196.987 Y17.431 E106.82173
G1 X196.924 Y15.158 E106.94153
G1 X170.817 Y21.934 E108.36252
G1 X170.676 Y21.392 E108.39203
G1 X173.58 Y20.638 E108.5501
G1 X173.329 Y19.67 E108.60278
G1 X226.529 Y5.864 E111.49841
G1 X227.123 Y5.79 E111.52995
G1 X227.722 Y5.874 E111.56182
G1 X228.264 Y6.106 E111.59288
G1 X228.734 Y6.474 E111.62433
G1 X229.091 Y6.949 E111.65563
