;Recompiled by AnkerMake
;CompileMode: Executable File
;FLAVOR:Marlin
;TIME:4998.95s
;Machine Name:AnkerMake M5
;Filament Name:PLA+ Matte
;Machine Nozzle Size:0.40
;Print Mode:fast
;Profile Name:Easy Mode
;multi_model:true
;damaged:false
;repaired:false
;speed_travel:500
;material_print_temperature:220
;material_print_temperature_layer_0:230
;material_bed_temperature:65
;material_bed_temperature_layer_0:65
;layer_height_0:0.24
;bridge_settings_enabled:true
;bridge_wall_speed:50
;bridge_skin_speed:50
;bridge_skin_speed_2:50
;bridge_skin_speed_3:50
;speed_print:500
;speed_infill:270
;speed_wall:250
;speed_wall_0:150
;speed_wall_x:250
;speed_topbottom:150
;speed_roofing:150
;support_enable:false
;speed_support:250
;speed_support_infill:250
;speed_support_interface:166.667
;speed_support_roof:166.667
;speed_support_bottom:166.667
;speed_layer_0:50
;speed_print_layer_0:50
;speed_travel_layer_0:150
;speed_z_hop:10
;retraction_amount:2
;retraction_retract_speed:60
;retraction_prime_speed:60
;adhesion_type:skirt
;skirt_brim_speed:50
;raft_speed:125
;raft_surface_speed:125
;raft_interface_speed:93.75
;raft_base_speed:93.75
;acceleration_enabled:true
;acceleration_travel:5000
;acceleration_print:5000
;jerk_enabled:true
;jerk_travel:15
;jerk_print:15
;jerk_infill:15
;jerk_wall:15
;jerk_wall_0:15
;jerk_wall_x:15
;jerk_topbottom:15
;jerk_roofing:15
;jerk_support:15
;jerk_support_infill:15
;jerk_support_interface:15
;jerk_support_roof:15
;jerk_support_bottom:15
;jerk_prime_tower:15
;jerk_layer_0:15
;jerk_travel_layer_0:15
;jerk_print_layer_0:15
;jerk_skirt_brim:15
;ak_VAJK_J_E_enabled:true
;ak_J_E_print:3
;ak_J_E_infill:3
;ak_J_E_wall:3
;ak_J_E_wall_0:3
;ak_J_E_wall_x:3
;ak_J_E_topbottom:3
;ak_J_E_support:3
;ak_J_E_skirt_brim:3
;ak_J_E_layer_0:3
;ak_VAJK_K_enabled:false
;ak_K_print:0.05
;ak_K_infill:0.05
;ak_K_wall:0.05
;ak_K_wall_0:0.05
;ak_K_wall_x:0.05
;ak_K_topbottom:0.05
;ak_K_support:0.05
;ak_K_skirt_brim:0.05
;ak_K_layer_0:0.05
;Filament used: 24.8418m
;Filament weight: 74.0918g
;Layer height: 0.3
;MINX:1.582
;MINY:1.426
;MINZ:0.24
;MAXX:233.845
;MAXY:233.682
;MAXZ:32.94
;MAXSPEED:30000
;
;Generated with AnkerSlicer
M4899 T3
M140 S65
M105
M190 S65
M104 S230
M105
M109 S230
G28 ;Home
M82 ;absolute extrusion mode
; config start gcode
M204 S2500
M205 X30 Y30
M205 Z0.3
M205 E5
G92 E0
G92 E0
G1 F3600 E-2
;LAYER_COUNT:110
;LAYER:0
M107
G0 F9000 X50.223 Y52.546 Z0.24;Z_UP:0.24
M205 X15 Y15
M205 E3
;TYPE:SKIRT
G1 F3600 E0
G1 F3000 X52.14 Y50.652 E0.12907
G1 X53.697 Y49.033 E0.23665
G1 X53.973 Y48.74 E0.25593
G1 X54.313 Y48.427 E0.27806
G1 X54.674 Y48.14 E0.30015
G1 X54.924 Y47.953 E0.3151
G1 X55.543 Y47.594 E0.34937
G1 X55.984 Y47.401 E0.37243
G1 X56.294 Y47.277 E0.38842
G1 X56.757 Y47.127 E0.41173
G1 X56.991 Y47.061 E0.42338
G1 X226.054 Y1.761 E8.80621
G1 X226.739 Y1.587 E8.84006
G1 X227.191 Y1.501 E8.8621
G1 X227.339 Y1.48 E8.86926
G1 X227.78 Y1.428 E8.89053
G1 X228.515 Y1.426 E8.92573
G1 X228.992 Y1.48 E8.94872
G1 X229.237 Y1.514 E8.96057
G1 X229.963 Y1.706 E8.99654
G1 X230.492 Y1.915 E9.02378
G1 X230.705 Y2.006 E9.03487
G1 X231.321 Y2.364 E9.06899
G1 X231.672 Y2.624 E9.08992
G1 X231.905 Y2.807 E9.10411
G1 X232.416 Y3.319 E9.13875
G1 X232.83 Y3.843 E9.17074
G1 X232.901 Y3.939 E9.17645
G1 X233.264 Y4.569 E9.21128
G1 X233.44 Y4.975 E9.23247
G1 X233.545 Y5.236 E9.24595
G1 X233.737 Y5.944 E9.28108
G1 X233.822 Y6.517 E9.30882
G1 X233.843 Y6.695 E9.31741
G1 X233.845 Y7.43 E9.35261
G1 X233.778 Y8.008 E9.38048
G1 X233.697 Y8.478 E9.40332
G1 X233.623 Y8.79 E9.41868
G1 X233.58 Y8.958 E9.42699
G1 X188.272 Y178.045 E17.81103
G1 X188.088 Y178.695 E17.84339
G1 X187.933 Y179.14 E17.86596
G1 X187.869 Y179.298 E17.87412
G1 X187.694 Y179.699 E17.89508
G1 X187.337 Y180.318 E17.9293
G1 X187.076 Y180.672 E17.95037
G1 X186.873 Y180.93 E17.96609
G1 X186.571 Y181.261 E17.98755
G1 X185.208 Y182.559 E18.07769
G1 X183.287 Y184.456 E18.207
G1 X181.73 Y186.075 E18.31458
G1 X181.45 Y186.373 E18.33416
G1 X181.107 Y186.689 E18.3565
G1 X180.684 Y187.023 E18.38232
G1 X180.527 Y187.14 E18.39169
G1 X179.897 Y187.506 E18.42659
G1 X179.371 Y187.736 E18.45408
G1 X178.888 Y187.915 E18.47876
G1 X178.542 Y188.018 E18.49605
G1 X9.38 Y233.344 E26.88379
G1 X8.665 Y233.525 E26.91911
G1 X8.2 Y233.613 E26.94178
G1 X8.07 Y233.631 E26.94806
G1 X7.648 Y233.681 E26.96842
G1 X6.907 Y233.682 E27.00391
G1 X6.369 Y233.62 E27.02984
G1 X6.192 Y233.595 E27.03841
G1 X5.461 Y233.401 E27.07463
G1 X4.931 Y233.191 E27.10193
G1 X4.736 Y233.108 E27.11208
G1 X4.106 Y232.744 E27.14693
G1 X3.755 Y232.484 E27.16785
G1 X3.522 Y232.301 E27.18204
G1 X3.011 Y231.789 E27.21669
G1 X2.66 Y231.347 E27.24372
G1 X2.522 Y231.163 E27.25473
G1 X2.163 Y230.539 E27.28921
G1 X1.987 Y230.133 E27.31041
G1 X1.882 Y229.872 E27.32388
G1 X1.69 Y229.164 E27.35902
G1 X1.605 Y228.589 E27.38685
G1 X1.584 Y228.41 E27.39549
G1 X1.582 Y227.676 E27.43064
G1 X1.636 Y227.2 E27.45359
G1 X1.684 Y226.875 E27.46932
G1 X1.787 Y226.387 E27.49321
G1 X1.847 Y226.15 E27.50492
G1 X47.159 Y57.048 E35.88971
G1 X47.342 Y56.404 E35.92177
G1 X47.495 Y55.965 E35.94404
G1 X47.558 Y55.81 E35.95205
G1 X47.733 Y55.409 E35.97301
G1 X48.09 Y54.79 E36.00723
G1 X48.351 Y54.436 E36.0283
G1 X48.562 Y54.169 E36.0446
G1 X48.855 Y53.849 E36.06538
G1 X50.223 Y52.546 E36.15586
M204 S5000
G1 F3600 E34.15586
;MESH:mesh8640156224.stl
G0 F9000 X62.954 Y89.504
G0 X63.94 Y88.371
G0 X146.634 Y171.562
G0 X147.082 Y172.149
G0 X147.378 Y172.861
G0 X147.483 Y173.64
G0 X147.402 Y174.258
G0 X147.109 Y175.195
G0 X146.856 Y175.001
G1 F3600 E36.15586
M204 S3000
;TYPE:WALL-OUTER
G1 F3000 X146.428 Y175.559 E36.19291
G1 X145.86 Y175.997 E36.2307
G1 X145.223 Y176.261 E36.26703
G1 X31.981 Y206.605 E42.44355
G1 X31.291 Y206.696 E42.48021
G1 X30.594 Y206.604 E42.51725
G1 X29.93 Y206.331 E42.55508
G1 X29.371 Y205.903 E42.59217
G1 X28.934 Y205.335 E42.62992
G1 X28.664 Y204.685 E42.667
G1 X28.569 Y203.974 E42.7048
G1 X28.659 Y203.291 E42.74109
G1 X59.001 Y90.047 E48.91768
G1 X59.268 Y89.404 E48.95436
G1 X59.696 Y88.845 E48.99146
G1 X60.264 Y88.408 E49.02921
G1 X60.914 Y88.138 E49.06629
G1 X61.625 Y88.043 E49.10408
G1 X62.322 Y88.135 E49.14112
G1 X62.986 Y88.408 E49.17895
G1 X63.538 Y88.831 E49.21559
G1 X146.438 Y171.733 E55.39225
G1 X146.856 Y172.279 E55.42848
G1 X147.126 Y172.929 E55.46556
G1 X147.221 Y173.64 E55.50335
G1 X147.129 Y174.337 E55.54039
G1 X146.856 Y175.001 E55.57821
G0 F9000 X146.673 Y175.077
G0 X147.225 Y175.21
M204 S5000
;TYPE:WALL-INNER
G1 F3000 X147.539 Y174.447 E55.61773
G1 X147.645 Y173.639 E55.65676
G1 X147.535 Y172.818 E55.69643
G1 X147.224 Y172.069 E55.73527
G1 X146.755 Y171.457 E55.7722
G1 X63.814 Y88.514 E61.39013
G1 X63.195 Y88.039 E61.4275
G1 X62.432 Y87.725 E61.46702
G1 X61.624 Y87.619 E61.50605
G1 X60.803 Y87.729 E61.54572
G1 X60.052 Y88.041 E61.58467
G1 X59.398 Y88.544 E61.62418
G1 X58.9 Y89.194 E61.6634
G1 X58.605 Y89.906 E61.70032
G1 X28.246 Y203.213 E67.31853
G1 X28.145 Y203.975 E67.35534
G1 X28.255 Y204.796 E67.39501
G1 X28.567 Y205.547 E67.43396
G1 X29.07 Y206.201 E67.47348
G1 X29.721 Y206.7 E67.51276
G1 X30.484 Y207.014 E67.55228
G1 X31.291 Y207.12 E67.59126
G1 X32.059 Y207.018 E67.62837
G1 X145.364 Y176.657 E73.24651
G1 X146.073 Y176.364 E73.28326
G1 X146.726 Y175.861 E73.32273
G1 X147.225 Y175.21 E73.36202
G1 F3600 E71.36202
G0 F9000 X147.725 Y174.497
G0 X146.263 Y174.106
G0 X180.332 Y181.437
G0 X178.928 Y182.016
G0 X179.231 Y182.944
G0 X179.542 Y183.029
G1 F3600 E73.36202
M204 S3000
;TYPE:WALL-OUTER
G1 F3000 X179.309 Y183.585 E73.39378
G1 X178.951 Y184.05 E73.4247
G1 X178.48 Y184.413 E73.45603
G1 X177.923 Y184.643 E73.48777
G1 X7.842 Y230.215 E82.76441
G1 X7.249 Y230.293 E82.79592
G1 X6.66 Y230.216 E82.82722
G1 X6.105 Y229.984 E82.85891
G1 X5.637 Y229.625 E82.88998
G1 X5.273 Y229.148 E82.92159
G1 X5.048 Y228.606 E82.95251
G1 X4.971 Y228.015 E82.98391
G1 X5.05 Y227.415 E83.01579
G1 X50.62 Y57.345 E92.29184
G1 X50.856 Y56.78 E92.3241
G1 X51.215 Y56.312 E92.35518
G1 X51.692 Y55.948 E92.38679
G1 X52.234 Y55.723 E92.41771
G1 X52.825 Y55.646 E92.4491
G1 X53.415 Y55.723 E92.48045
G1 X53.962 Y55.95 E92.51165
G1 X54.446 Y56.321 E92.54378
G1 X178.943 Y180.819 E101.81966
G1 X179.318 Y181.308 E101.85212
G1 X179.541 Y181.848 E101.8829
G1 X179.619 Y182.439 E101.91431
G1 X179.542 Y183.029 E101.94565
G0 F9000 X179.132 Y182.922
M204 S5000
;TYPE:WALL-INNER
G1 F3000 X178.943 Y183.373 E101.96907
G1 X178.653 Y183.749 E101.99182
G1 X178.268 Y184.046 E102.01511
G1 X177.785 Y184.245 E102.04013
G1 X7.764 Y229.801 E110.47046
G1 X7.249 Y229.869 E110.49534
G1 X6.767 Y229.806 E110.51862
G1 X6.32 Y229.619 E110.54183
G1 X5.936 Y229.325 E110.56499
G1 X5.64 Y228.936 E110.5884
G1 X5.458 Y228.498 E110.61112
G1 X5.395 Y228.015 E110.63445
G1 X5.464 Y227.492 E110.65971
G1 X51.017 Y57.486 E119.08931
G1 X51.223 Y56.992 E119.11495
G1 X51.515 Y56.611 E119.13794
G1 X51.904 Y56.315 E119.16135
G1 X52.342 Y56.133 E119.18407
G1 X52.825 Y56.07 E119.20739
G1 X53.307 Y56.133 E119.23068
G1 X53.75 Y56.317 E119.25365
G1 X54.163 Y56.633 E119.27856
G1 X178.631 Y181.102 E127.7092
G1 X178.95 Y181.518 E127.73431
G1 X179.132 Y181.961 E127.75725
G1 X179.196 Y182.436 E127.78021
G1 X179.132 Y182.922 E127.80368
G0 F9000 X179.072 Y182.897
G1 F3600 E125.80368
G0 F9000 X178.966 Y182.006
G0 X178.801 Y181.607
G0 X178.497 Y181.208
G0 X53.617 Y56.382
G0 X53.598 Y56.427
G1 F3600 E127.80368
M204 S2500
;TYPE:SKIN
G1 F3000 X178.838 Y181.667 E136.28659
G0 F9000 X179.033 Y182.427
G1 F3000 X52.838 Y56.232 E144.83418
G0 F9000 X52.344 Y56.304
G1 F3000 X178.959 Y182.919 E153.41021
G0 F9000 X178.786 Y183.312
G1 F3000 X51.952 Y56.478 E162.00109
G0 F9000 X51.63 Y56.721
G1 F3000 X178.542 Y183.633 E170.59724
G0 F9000 X178.222 Y183.878
G1 F3000 X51.385 Y57.042 E179.18828
G0 F9000 X51.211 Y57.434
G1 F3000 X177.83 Y184.052 E187.76455
G0 F9000 X177.395 Y184.183
G1 F3000 X51.079 Y57.867 E196.32034
G0 F9000 X50.959 Y58.313
G1 F3000 X176.949 Y184.303 E204.85404
G0 F9000 X176.503 Y184.422
G1 F3000 X50.84 Y58.759 E213.3656
G0 F9000 X50.72 Y59.206
G1 F3000 X176.056 Y184.542 E221.855
G0 F9000 X175.61 Y184.661
G1 F3000 X50.601 Y59.652 E230.32226
G0 F9000 X50.481 Y60.098
G1 F3000 X175.164 Y184.781 E238.76744
G0 F9000 X174.718 Y184.9
G1 F3000 X50.362 Y60.544 E247.19047
G0 F9000 X50.242 Y60.99
G1 F3000 X174.272 Y185.02 E255.59141
G0 F9000 X173.825 Y185.139
G1 F3000 X50.123 Y61.436 E263.97018
G0 F9000 X50.003 Y61.883
G1 F3000 X173.379 Y185.259 E272.32683
G0 F9000 X172.933 Y185.378
G1 F3000 X49.884 Y62.329 E280.66133
G0 F9000 X49.764 Y62.775
G1 F3000 X172.487 Y185.498 E288.97375
G0 F9000 X172.041 Y185.617
G1 F3000 X49.645 Y63.221 E297.26402
G0 F9000 X49.525 Y63.667
G1 F3000 X171.595 Y185.737 E305.53221
G0 F9000 X171.148 Y185.856
G1 F3000 X49.405 Y64.113 E313.77825
G0 F9000 X49.286 Y64.559
G1 F3000 X170.702 Y185.976 E322.00218
G0 F9000 X170.256 Y186.095
G1 F3000 X49.166 Y65.005 E330.20399
G0 F9000 X49.047 Y65.451
G1 F3000 X169.81 Y186.215 E338.38368
G0 F9000 X169.364 Y186.335
G1 F3000 X48.927 Y65.898 E346.54127
G0 F9000 X48.808 Y66.344
G1 F3000 X168.918 Y186.454 E354.6767
G0 F9000 X168.472 Y186.574
G1 F3000 X48.688 Y66.79 E362.79005
G0 F9000 X48.569 Y67.236
G1 F3000 X168.026 Y186.693 E370.88125
G0 F9000 X167.58 Y186.813
G1 F3000 X48.449 Y67.682 E378.95038
G0 F9000 X48.33 Y68.129
G1 F3000 X167.133 Y186.932 E386.99728
G0 F9000 X166.687 Y187.052
G1 F3000 X48.21 Y68.575 E395.02211
G0 F9000 X48.091 Y69.021
G1 F3000 X166.241 Y187.171 E403.02478
G0 F9000 X165.795 Y187.291
G1 F3000 X47.971 Y69.467 E411.00538
G0 F9000 X47.852 Y69.913
G1 F3000 X165.349 Y187.41 E418.96382
G0 F9000 X164.902 Y187.53
G1 F3000 X47.732 Y70.359 E426.90015
G0 F9000 X47.613 Y70.806
G1 F3000 X164.456 Y187.649 E434.8143
G0 F9000 X164.01 Y187.769
G1 F3000 X47.492 Y71.251 E442.70644
G0 F9000 X47.373 Y71.697
G1 F3000 X163.564 Y187.888 E450.57642
G0 F9000 X163.118 Y188.008
G1 F3000 X147.553 Y172.443 E451.63069
G0 F9000 X147.747 Y173.203
G1 F3000 X162.672 Y188.127 E452.64157
G0 F9000 X162.225 Y188.247
G1 F3000 X147.783 Y173.805 E453.61978
G0 F9000 X147.718 Y174.306
G1 F3000 X161.78 Y188.367 E454.57221
G0 F9000 X161.334 Y188.487
G1 F3000 X147.59 Y174.743 E455.50313
G0 F9000 X147.425 Y175.143
G1 F3000 X160.888 Y188.606 E456.41502
G0 F9000 X160.441 Y188.726
G1 F3000 X147.209 Y175.493 E457.3113
G0 F9000 X146.962 Y175.812
G1 F3000 X159.995 Y188.845 E458.19407
G0 F9000 X159.549 Y188.965
G1 F3000 X146.681 Y176.097 E459.06566
G0 F9000 X146.361 Y176.343
G1 F3000 X159.103 Y189.084 E459.92868
G0 F9000 X158.657 Y189.204
G1 F3000 X146.014 Y176.561 E460.78503
G0 F9000 X145.614 Y176.727
G1 F3000 X158.21 Y189.323 E461.6382
G0 F9000 X157.764 Y189.443
G1 F3000 X145.19 Y176.869 E462.48988
G0 F9000 X144.744 Y176.988
G1 F3000 X157.318 Y189.562 E463.34156
G0 F9000 X156.872 Y189.682
G1 F3000 X144.298 Y177.108 E464.19323
G0 F9000 X143.852 Y177.227
G1 F3000 X156.426 Y189.801 E465.04491
G0 F9000 X155.979 Y189.921
G1 F3000 X143.406 Y177.347 E465.89655
G0 F9000 X142.96 Y177.466
G1 F3000 X155.533 Y190.04 E466.7482
G0 F9000 X155.087 Y190.16
G1 F3000 X142.513 Y177.586 E467.59987
G0 F9000 X142.067 Y177.705
G1 F3000 X154.641 Y190.279 E468.45155
G0 F9000 X154.195 Y190.399
G1 F3000 X141.621 Y177.825 E469.30323
G0 F9000 X141.175 Y177.944
G1 F3000 X153.749 Y190.519 E470.15494
G0 F9000 X153.303 Y190.638
G1 F3000 X140.729 Y178.064 E471.00661
G0 F9000 X140.282 Y178.183
G1 F3000 X152.857 Y190.758 E471.85836
G0 F9000 X152.411 Y190.877
G1 F3000 X139.836 Y178.303 E472.71007
G0 F9000 X139.39 Y178.422
G1 F3000 X151.965 Y190.997 E473.56182
G0 F9000 X151.518 Y191.116
G1 F3000 X138.945 Y178.543 E474.41342
G0 F9000 X138.498 Y178.662
G1 F3000 X151.072 Y191.236 E475.2651
G0 F9000 X150.626 Y191.355
G1 F3000 X138.052 Y178.782 E476.11675
G0 F9000 X137.606 Y178.901
G1 F3000 X150.18 Y191.475 E476.96842
G0 F9000 X149.734 Y191.594
G1 F3000 X137.16 Y179.021 E477.82007
G0 F9000 X136.714 Y179.14
G1 F3000 X149.287 Y191.714 E478.67171
G0 F9000 X148.841 Y191.833
G1 F3000 X136.267 Y179.26 E479.52335
G0 F9000 X135.821 Y179.379
G1 F3000 X148.395 Y191.953 E480.37503
G0 F9000 X147.949 Y192.072
G1 F3000 X135.375 Y179.499 E481.22667
G0 F9000 X134.929 Y179.618
G1 F3000 X147.503 Y192.192 E482.07835
G0 F9000 X147.056 Y192.311
G1 F3000 X134.483 Y179.738 E482.92996
G0 F9000 X134.037 Y179.857
G1 F3000 X146.61 Y192.431 E483.7816
G0 F9000 X146.164 Y192.55
G1 F3000 X133.59 Y179.977 E484.63324
G0 F9000 X133.144 Y180.096
G1 F3000 X145.719 Y192.671 E485.48499
G0 F9000 X145.272 Y192.79
G1 F3000 X132.698 Y180.216 E486.33667
G0 F9000 X132.252 Y180.335
G1 F3000 X144.826 Y192.91 E487.18838
G0 F9000 X144.38 Y193.029
G1 F3000 X131.806 Y180.455 E488.04005
G0 F9000 X131.36 Y180.575
G1 F3000 X143.934 Y193.149 E488.89173
G0 F9000 X143.488 Y193.268
G1 F3000 X130.914 Y180.694 E489.74341
G0 F9000 X130.468 Y180.814
G1 F3000 X143.042 Y193.388 E490.59509
G0 F9000 X142.595 Y193.507
G1 F3000 X130.022 Y180.933 E491.44673
G0 F9000 X129.575 Y181.053
G1 F3000 X142.149 Y193.627 E492.29841
G0 F9000 X141.703 Y193.746
G1 F3000 X129.129 Y181.172 E493.15008
G0 F9000 X128.683 Y181.292
G1 F3000 X141.257 Y193.866 E494.00176
G0 F9000 X140.811 Y193.985
G1 F3000 X128.237 Y181.411 E494.85344
G0 F9000 X127.791 Y181.531
G1 F3000 X140.364 Y194.105 E495.70508
G0 F9000 X139.918 Y194.224
G1 F3000 X127.344 Y181.65 E496.55676
G0 F9000 X126.898 Y181.77
G1 F3000 X139.472 Y194.344 E497.40843
G0 F9000 X139.026 Y194.463
G1 F3000 X126.452 Y181.889 E498.26011
G0 F9000 X126.006 Y182.009
G1 F3000 X138.58 Y194.583 E499.11179
G0 F9000 X138.134 Y194.703
G1 F3000 X125.56 Y182.128 E499.9635
G0 F9000 X125.114 Y182.248
G1 F3000 X137.688 Y194.822 E500.81518
G0 F9000 X137.242 Y194.942
G1 F3000 X124.667 Y182.367 E501.66692
G0 F9000 X124.222 Y182.487
G1 F3000 X136.796 Y195.061 E502.5186
G0 F9000 X136.349 Y195.181
G1 F3000 X123.776 Y182.607 E503.37024
G0 F9000 X123.33 Y182.726
G1 F3000 X135.903 Y195.3 E504.22189
G0 F9000 X135.457 Y195.42
G1 F3000 X122.883 Y182.846 E505.07356
G0 F9000 X122.437 Y182.966
G1 F3000 X135.011 Y195.539 E505.92521
G0 F9000 X134.565 Y195.659
G1 F3000 X121.991 Y183.085 E506.77688
G0 F9000 X121.545 Y183.205
G1 F3000 X134.119 Y195.778 E507.62853
G0 F9000 X133.672 Y195.898
