;Recompiled by AnkerMake
;CompileMode: Executable File
;FLAVOR:Marlin
;TIME:4589.56s
;Machine Name:AnkerMake M5
;Filament Name:PLA+ Matte
;Machine Nozzle Size:0.40
;Print Mode:fast
;Profile Name:Easy Mode
;multi_model:true
;damaged:false
;repaired:false
;speed_travel:500
;material_print_temperature:220
;material_print_temperature_layer_0:230
;material_bed_temperature:65
;material_bed_temperature_layer_0:65
;layer_height_0:0.24
;bridge_settings_enabled:true
;bridge_wall_speed:50
;bridge_skin_speed:50
;bridge_skin_speed_2:50
;bridge_skin_speed_3:50
;speed_print:500
;speed_infill:270
;speed_wall:250
;speed_wall_0:150
;speed_wall_x:250
;speed_topbottom:150
;speed_roofing:150
;support_enable:false
;speed_support:250
;speed_support_infill:250
;speed_support_interface:166.667
;speed_support_roof:166.667
;speed_support_bottom:166.667
;speed_layer_0:50
;speed_print_layer_0:50
;speed_travel_layer_0:150
;speed_z_hop:10
;retraction_amount:2
;retraction_retract_speed:60
;retraction_prime_speed:60
;adhesion_type:skirt
;skirt_brim_speed:50
;raft_speed:125
;raft_surface_speed:125
;raft_interface_speed:93.75
;raft_base_speed:93.75
;acceleration_enabled:true
;acceleration_travel:5000
;acceleration_print:5000
;jerk_enabled:true
;jerk_travel:15
;jerk_print:15
;jerk_infill:15
;jerk_wall:15
;jerk_wall_0:15
;jerk_wall_x:15
;jerk_topbottom:15
;jerk_roofing:15
;jerk_support:15
;jerk_support_infill:15
;jerk_support_interface:15
;jerk_support_roof:15
;jerk_support_bottom:15
;jerk_prime_tower:15
;jerk_layer_0:15
;jerk_travel_layer_0:15
;jerk_print_layer_0:15
;jerk_skirt_brim:15
;ak_VAJK_J_E_enabled:true
;ak_J_E_print:3
;ak_J_E_infill:3
;ak_J_E_wall:3
;ak_J_E_wall_0:3
;ak_J_E_wall_x:3
;ak_J_E_topbottom:3
;ak_J_E_support:3
;ak_J_E_skirt_brim:3
;ak_J_E_layer_0:3
;ak_VAJK_K_enabled:false
;ak_K_print:0.05
;ak_K_infill:0.05
;ak_K_wall:0.05
;ak_K_wall_0:0.05
;ak_K_wall_x:0.05
;ak_K_topbottom:0.05
;ak_K_support:0.05
;ak_K_skirt_brim:0.05
;ak_K_layer_0:0.05
;Filament used: 20.1882m
;Filament weight: 60.2122g
;Layer height: 0.3
;MINX:3.371
;MINY:8.07
;MINZ:0.24
;MAXX:228.592
;MAXY:231.413
;MAXZ:25.74
;MAXSPEED:30000
;
;Generated with AnkerSlicer
M4899 T3
M140 S65
M105
M190 S65
M104 S230
M105
M109 S230
G28 ;Home
M82 ;absolute extrusion mode
; config start gcode
M204 S2500
M205 X30 Y30
M205 Z0.3
M205 E5
G92 E0
G92 E0
G1 F3600 E-2
;LAYER_COUNT:86
;LAYER:0
M107
G0 F9000 X46.527 Y63.413 Z0.24;Z_UP:0.24
M205 X15 Y15
M205 E3
;TYPE:SKIRT
G1 F3600 E0
G1 F3000 X47.614 Y62.603 E0.06493
G1 X48.026 Y62.306 E0.08925
G1 X50.193 Y60.648 E0.21993
G1 X52.309 Y58.931 E0.35045
G1 X54.392 Y57.142 E0.48195
G1 X56.427 Y55.292 E0.61367
G1 X58.398 Y53.395 E0.74469
G1 X60.837 Y50.892 E0.91208
G1 X61.003 Y50.716 E0.92366
G1 X61.334 Y50.411 E0.94522
G1 X61.656 Y50.154 E0.96495
G1 X61.852 Y50.006 E0.97672
G1 X62.46 Y49.656 E1.01032
G1 X62.852 Y49.484 E1.03082
G1 X63.318 Y49.309 E1.05466
G1 X63.628 Y49.216 E1.07016
G1 X63.838 Y49.157 E1.08061
G1 X215.987 Y8.39 E8.62477
G1 X216.7 Y8.21 E8.65999
G1 X217.09 Y8.134 E8.67902
G1 X217.251 Y8.111 E8.68681
G1 X217.596 Y8.071 E8.70344
G1 X218.324 Y8.07 E8.73831
G1 X218.821 Y8.127 E8.76227
G1 X218.902 Y8.138 E8.76619
G1 X219.396 Y8.246 E8.7904
G1 X219.647 Y8.333 E8.80313
G1 X220.156 Y8.536 E8.82937
G1 X220.23 Y8.568 E8.83324
G1 X220.867 Y8.935 E8.86845
G1 X221.22 Y9.197 E8.8895
G1 X221.588 Y9.501 E8.91236
G1 X221.83 Y9.729 E8.92829
G1 X221.962 Y9.859 E8.93716
G1 X226.667 Y14.566 E9.25591
G1 X227.132 Y15.046 E9.28792
G1 X227.4 Y15.354 E9.30747
G1 X227.5 Y15.481 E9.31522
G1 X227.7 Y15.749 E9.33123
G1 X228.074 Y16.398 E9.36711
G1 X228.278 Y16.872 E9.39182
G1 X228.441 Y17.351 E9.41606
G1 X228.504 Y17.662 E9.43125
G1 X228.564 Y18.062 E9.45063
G1 X228.592 Y18.293 E9.46177
G1 X228.591 Y19.015 E9.49635
G1 X228.53 Y19.542 E9.52176
G1 X228.465 Y19.911 E9.5397
G1 X228.377 Y20.283 E9.55801
G1 X187.552 Y172.644 E17.1127
G1 X187.37 Y173.287 E17.14471
G1 X187.235 Y173.68 E17.16461
G1 X187.166 Y173.851 E17.17344
G1 X187.027 Y174.169 E17.19006
G1 X186.665 Y174.793 E17.22461
G1 X186.372 Y175.185 E17.24805
G1 X186.289 Y175.289 E17.25443
G1 X185.779 Y175.798 E17.28894
G1 X185.389 Y176.106 E17.31274
G1 X184.443 Y176.811 E17.36924
G1 X183.839 Y177.248 E17.40495
G1 X181.65 Y178.928 E17.53711
G1 X179.526 Y180.657 E17.66828
G1 X177.46 Y182.437 E17.79889
G1 X175.432 Y184.287 E17.93036
G1 X173.463 Y186.189 E18.06148
G1 X171.068 Y188.653 E18.22606
G1 X170.968 Y188.759 E18.23304
G1 X170.634 Y189.066 E18.25476
G1 X170.26 Y189.364 E18.27767
G1 X170.127 Y189.465 E18.28566
G1 X169.49 Y189.834 E18.32092
G1 X169.087 Y190.009 E18.34197
G1 X168.63 Y190.179 E18.36532
G1 X168.268 Y190.286 E18.3834
G1 X15.975 Y231.093 E25.93472
G1 X15.261 Y231.274 E25.97
G1 X14.845 Y231.354 E25.99028
G1 X14.721 Y231.371 E25.99628
G1 X14.389 Y231.411 E26.0123
G1 X13.638 Y231.413 E26.04826
G1 X13.102 Y231.351 E26.07411
G1 X12.606 Y231.253 E26.09832
G1 X12.289 Y231.146 E26.11435
G1 X11.893 Y230.988 E26.13477
G1 X11.763 Y230.933 E26.14153
G1 X11.106 Y230.558 E26.17776
G1 X10.717 Y230.27 E26.20094
G1 X10.372 Y229.984 E26.2224
G1 X10.126 Y229.752 E26.2386
G1 X9.971 Y229.599 E26.24903
G1 X5.262 Y224.888 E26.56805
G1 X4.837 Y224.449 E26.59732
G1 X4.569 Y224.141 E26.61687
G1 X4.452 Y223.993 E26.62591
G1 X4.255 Y223.727 E26.64176
G1 X3.891 Y223.095 E26.67669
G1 X3.7 Y222.654 E26.69971
G1 X3.638 Y222.502 E26.70757
G1 X3.454 Y221.812 E26.74177
G1 X3.387 Y221.359 E26.76371
G1 X3.371 Y221.221 E26.77036
G1 Y220.485 E26.80561
G1 X3.437 Y219.914 E26.83314
G1 X3.505 Y219.53 E26.85182
G1 X3.61 Y219.101 E26.87297
G1 X44.409 Y66.841 E34.42266
G1 X44.591 Y66.198 E34.45467
G1 X44.725 Y65.809 E34.47438
G1 X44.784 Y65.662 E34.48196
G1 X44.927 Y65.33 E34.49928
G1 X45.301 Y64.683 E34.53507
G1 X45.58 Y64.31 E34.55738
G1 X45.649 Y64.222 E34.56273
G1 X46.177 Y63.691 E34.5986
G1 X46.527 Y63.413 E34.62001
M204 S5000
G1 F3600 E32.62001
;MESH:mesh8640156224.stl
G0 F9000 X47.057 Y66.772
G0 X48.1 Y67.206
G0 X7.399 Y220.461
G0 X7.352 Y220.81
G0 X7.393 Y221.113
G0 X7.509 Y221.394
G0 X13.244 Y227.51
G0 X13.083 Y227.788
G1 F3600 E34.62001
M204 S3000
;TYPE:WALL-OUTER
G1 F3000 X12.71 Y227.501 E34.6448
G1 X7.282 Y222.071 E35.0493
G1 X6.991 Y221.691 E35.07451
G1 X6.818 Y221.271 E35.09844
G1 X6.757 Y220.81 E35.12294
G1 X6.82 Y220.34 E35.14792
G1 X47.872 Y67.13 E43.50438
G1 X48.056 Y66.689 E43.52956
G1 X48.335 Y66.325 E43.55372
G1 X48.705 Y66.042 E43.57826
G1 X49.14 Y65.862 E43.60306
G1 X56.557 Y63.875 E44.0076
G1 X57.021 Y63.814 E44.03225
G1 X57.482 Y63.874 E44.05675
G1 X57.91 Y64.052 E44.08117
G1 X58.277 Y64.334 E44.10555
G1 X170.44 Y176.495 E52.46235
G1 X170.735 Y176.881 E52.48795
G1 X170.909 Y177.3 E52.51185
G1 X170.969 Y177.762 E52.53639
G1 X170.906 Y178.24 E52.56179
G1 X168.924 Y185.636 E52.96519
G1 X168.736 Y186.085 E52.99084
G1 X168.458 Y186.448 E53.01493
G1 X168.087 Y186.732 E53.03954
G1 X167.653 Y186.911 E53.06427
G1 X14.436 Y227.964 E61.4211
G1 X13.973 Y228.026 E61.44571
G1 X13.513 Y227.965 E61.47016
G1 X13.083 Y227.788 E61.49466
G0 F9000 X13.292 Y227.419
M204 S5000
;TYPE:WALL-INNER
G1 F3000 X12.99 Y227.187 E61.5129
G1 X7.598 Y221.793 E61.87818
G1 X7.36 Y221.482 E61.89694
G1 X7.227 Y221.158 E61.91371
G1 X7.18 Y220.81 E61.93053
G1 X7.232 Y220.425 E61.94914
G1 X48.27 Y67.268 E69.54329
G1 X48.423 Y66.9 E69.56238
G1 X48.634 Y66.625 E69.57898
G1 X48.916 Y66.409 E69.59599
G1 X49.274 Y66.261 E69.61455
G1 X56.635 Y64.289 E69.97953
G1 X57.021 Y64.238 E69.99818
G1 X57.374 Y64.284 E70.01523
G1 X57.699 Y64.42 E70.0321
G1 X57.993 Y64.645 E70.04983
G1 X170.123 Y176.773 E77.64469
G1 X170.369 Y177.095 E77.6641
G1 X170.499 Y177.408 E77.68033
G1 X170.545 Y177.76 E77.69733
G1 X170.492 Y178.162 E77.71675
G1 X168.526 Y185.503 E78.08074
G1 X168.37 Y185.872 E78.09992
G1 X168.159 Y186.149 E78.1166
G1 X167.877 Y186.365 E78.13361
G1 X167.514 Y186.513 E78.15239
G1 X14.351 Y227.552 E85.74683
G1 X13.972 Y227.603 E85.76515
G1 X13.626 Y227.556 E85.78187
G1 X13.292 Y227.419 E85.79916
G0 F9000 X13.331 Y227.368
G0 X13.503 Y227.332
M204 S2500
;TYPE:SKIN
G1 F3000 X7.45 Y221.279 E86.20915
G0 F9000 X7.365 Y220.629
G1 F3000 X14.152 Y227.416 E86.66886
G0 F9000 X14.616 Y227.314
G1 F3000 X7.467 Y220.164 E87.15311
G0 F9000 X7.586 Y219.718
G1 F3000 X15.062 Y227.194 E87.65949
G0 F9000 X15.508 Y227.075
G1 F3000 X7.706 Y219.272 E88.18798
G0 F9000 X7.825 Y218.826
G1 F3000 X15.954 Y226.955 E88.73858
G0 F9000 X16.4 Y226.835
G1 F3000 X7.945 Y218.38 E89.31126
G0 F9000 X8.064 Y217.933
G1 F3000 X16.846 Y226.716 E89.90613
G0 F9000 X17.293 Y226.596
G1 F3000 X8.184 Y217.487 E90.52311
G0 F9000 X8.303 Y217.041
G1 F3000 X17.739 Y226.477 E91.16224
G0 F9000 X18.185 Y226.357
G1 F3000 X8.423 Y216.595 E91.82345
G0 F9000 X8.542 Y216.149
G1 F3000 X18.631 Y226.238 E92.50681
G0 F9000 X19.077 Y226.118
G1 F3000 X8.662 Y215.702 E93.21229
G0 F9000 X8.781 Y215.256
G1 F3000 X19.523 Y225.999 E93.93991
G0 F9000 X19.97 Y225.879
G1 F3000 X8.901 Y214.811 E94.68962
G0 F9000 X9.021 Y214.365
G1 F3000 X20.416 Y225.76 E95.46144
G0 F9000 X20.862 Y225.64
G1 F3000 X9.14 Y213.918 E96.2554
G0 F9000 X9.26 Y213.472
G1 F3000 X21.308 Y225.521 E97.07149
G0 F9000 X21.754 Y225.401
G1 F3000 X9.379 Y213.026 E97.90969
G0 F9000 X9.499 Y212.58
G1 F3000 X22.201 Y225.282 E98.77003
G0 F9000 X22.647 Y225.162
G1 F3000 X9.618 Y212.134 E99.65249
G0 F9000 X9.738 Y211.687
G1 F3000 X23.093 Y225.043 E100.5571
G0 F9000 X23.538 Y224.922
G1 F3000 X9.857 Y211.241 E101.48376
G0 F9000 X9.977 Y210.795
G1 F3000 X23.985 Y224.803 E102.43257
G0 F9000 X24.431 Y224.683
G1 F3000 X10.096 Y210.349 E103.40349
G0 F9000 X10.216 Y209.903
G1 F3000 X24.877 Y224.564 E104.39653
G0 F9000 X25.323 Y224.444
G1 F3000 X10.335 Y209.457 E105.41168
G0 F9000 X10.455 Y209.01
G1 F3000 X25.769 Y224.325 E106.44898
G0 F9000 X26.215 Y224.205
G1 F3000 X10.574 Y208.564 E107.50839
G0 F9000 X10.694 Y208.118
G1 F3000 X26.662 Y224.086 E108.58996
G0 F9000 X27.108 Y223.966
G1 F3000 X10.813 Y207.672 E109.69363
G0 F9000 X10.933 Y207.226
G1 F3000 X27.554 Y223.847 E110.81943
G0 F9000 X28 Y223.727
G1 F3000 X11.053 Y206.78 E111.9673
G0 F9000 X11.172 Y206.334
G1 F3000 X28.446 Y223.608 E113.13732
G0 F9000 X28.893 Y223.488
G1 F3000 X11.292 Y205.888 E114.32946
G0 F9000 X11.411 Y205.442
G1 F3000 X29.339 Y223.369 E115.54375
G0 F9000 X29.785 Y223.249
G1 F3000 X11.531 Y204.995 E116.78015
G0 F9000 X11.65 Y204.549
G1 F3000 X30.231 Y223.13 E118.0387
G0 F9000 X30.677 Y223.01
G1 F3000 X11.77 Y204.103 E119.31933
G0 F9000 X11.89 Y203.657
G1 F3000 X31.123 Y222.89 E120.62205
G0 F9000 X31.569 Y222.771
G1 F3000 X12.009 Y203.211 E121.94691
G0 F9000 X12.129 Y202.764
G1 F3000 X32.015 Y222.651 E123.29388
G0 F9000 X32.461 Y222.532
G1 F3000 X12.248 Y202.318 E124.66301
G0 F9000 X12.368 Y201.872
G1 F3000 X32.908 Y222.412 E126.05425
G0 F9000 X33.354 Y222.293
G1 F3000 X12.487 Y201.426 E127.46763
G0 F9000 X12.607 Y200.98
G1 F3000 X33.8 Y222.173 E128.9031
G0 F9000 X34.246 Y222.054
G1 F3000 X12.726 Y200.534 E130.36072
G0 F9000 X12.846 Y200.087
G1 F3000 X34.692 Y221.934 E131.84046
G0 F9000 X35.138 Y221.815
G1 F3000 X12.966 Y199.642 E133.34227
G0 F9000 X13.085 Y199.196
G1 F3000 X35.585 Y221.695 E134.86623
G0 F9000 X36.031 Y221.576
G1 F3000 X13.205 Y198.75 E136.41231
G0 F9000 X13.324 Y198.303
G1 F3000 X36.477 Y221.456 E137.98054
G0 F9000 X36.923 Y221.337
G1 F3000 X13.444 Y197.857 E139.57088
G0 F9000 X13.563 Y197.411
G1 F3000 X37.369 Y221.217 E141.18333
G0 F9000 X37.816 Y221.098
G1 F3000 X13.683 Y196.965 E142.81794
G0 F9000 X13.802 Y196.519
G1 F3000 X38.262 Y220.978 E144.47466
G0 F9000 X38.707 Y220.858
G1 F3000 X13.922 Y196.072 E146.15346
G0 F9000 X14.041 Y195.626
G1 F3000 X39.153 Y220.738 E147.85438
G0 F9000 X39.6 Y220.619
G1 F3000 X14.161 Y195.18 E149.57744
G0 F9000 X14.28 Y194.734
G1 F3000 X40.046 Y220.499 E151.32262
G0 F9000 X40.492 Y220.38
G1 F3000 X14.4 Y194.288 E153.08991
G0 F9000 X14.519 Y193.842
G1 F3000 X40.938 Y220.26 E154.87932
G0 F9000 X41.384 Y220.141
G1 F3000 X14.639 Y193.395 E156.69088
G0 F9000 X14.758 Y192.949
G1 F3000 X41.831 Y220.021 E158.52459
G0 F9000 X42.277 Y219.902
G1 F3000 X14.878 Y192.504 E160.38037
G0 F9000 X14.998 Y192.057
G1 F3000 X42.723 Y219.782 E162.25828
G0 F9000 X43.169 Y219.663
G1 F3000 X15.117 Y191.611 E164.15833
G0 F9000 X15.237 Y191.165
G1 F3000 X43.615 Y219.543 E166.08046
G0 F9000 X44.061 Y219.424
G1 F3000 X15.356 Y190.719 E168.02474
G0 F9000 X15.476 Y190.273
G1 F3000 X44.508 Y219.304 E169.99114
G0 F9000 X44.954 Y219.185
G1 F3000 X15.595 Y189.827 E171.97968
G0 F9000 X15.715 Y189.38
G1 F3000 X45.4 Y219.065 E173.99034
G0 F9000 X45.846 Y218.946
G1 F3000 X15.834 Y188.934 E176.02315
G0 F9000 X15.954 Y188.488
G1 F3000 X46.292 Y218.826 E178.07804
G0 F9000 X46.738 Y218.706
G1 F3000 X16.073 Y188.042 E180.15504
G0 F9000 X16.193 Y187.596
G1 F3000 X47.184 Y218.587 E182.25416
G0 F9000 X47.63 Y218.467
G1 F3000 X16.312 Y187.149 E184.37543
G0 F9000 X16.432 Y186.703
G1 F3000 X48.076 Y218.348 E186.51881
G0 F9000 X48.523 Y218.228
G1 F3000 X16.551 Y186.257 E188.68435
G0 F9000 X16.671 Y185.811
G1 F3000 X48.969 Y218.109 E190.87199
G0 F9000 X49.415 Y217.989
G1 F3000 X16.79 Y185.365 E193.08175
G0 F9000 X16.911 Y184.919
G1 F3000 X49.861 Y217.87 E195.3136
G0 F9000 X50.307 Y217.75
G1 F3000 X17.03 Y184.473 E197.56755
G0 F9000 X17.15 Y184.027
G1 F3000 X50.754 Y217.631 E199.84366
G0 F9000 X51.2 Y217.511
G1 F3000 X17.269 Y183.581 E202.14188
G0 F9000 X17.389 Y183.134
G1 F3000 X51.646 Y217.392 E204.46225
G0 F9000 X52.092 Y217.272
G1 F3000 X17.508 Y182.688 E206.80473
G0 F9000 X17.628 Y182.242
G1 F3000 X52.538 Y217.153 E209.16933
G0 F9000 X52.984 Y217.033
G1 F3000 X17.747 Y181.796 E211.55605
G0 F9000 X17.867 Y181.35
G1 F3000 X53.431 Y216.914 E213.96491
G0 F9000 X53.877 Y216.794
G1 F3000 X17.986 Y180.904 E216.39589
G0 F9000 X18.106 Y180.457
G1 F3000 X54.322 Y216.674 E218.84895
G0 F9000 X54.768 Y216.554
G1 F3000 X18.225 Y180.011 E221.32412
G0 F9000 X18.345 Y179.565
G1 F3000 X55.215 Y216.435 E223.82144
G0 F9000 X55.661 Y216.315
G1 F3000 X18.464 Y179.119 E226.34088
G0 F9000 X18.584 Y178.673
G1 F3000 X56.107 Y216.196 E228.88243
G0 F9000 X56.553 Y216.076
G1 F3000 X18.703 Y178.226 E231.44613
G0 F9000 X18.823 Y177.78
G1 F3000 X56.999 Y215.957 E234.03195
G0 F9000 X57.446 Y215.837
G1 F3000 X18.943 Y177.335 E236.63985
G0 F9000 X19.062 Y176.889
G1 F3000 X57.892 Y215.718 E239.26989
G0 F9000 X58.338 Y215.598
G1 F3000 X19.182 Y176.442 E241.92205
G0 F9000 X19.301 Y175.996
G1 F3000 X58.784 Y215.479 E244.59636
G0 F9000 X59.23 Y215.359
G1 F3000 X19.421 Y175.55 E247.29275
G0 F9000 X19.54 Y175.104
G1 F3000 X59.676 Y215.24 E250.01129
G0 F9000 X60.123 Y215.12
G1 F3000 X19.66 Y174.658 E252.75195
G0 F9000 X19.779 Y174.212
G1 F3000 X60.569 Y215.001 E255.51475
G0 F9000 X61.015 Y214.881
G1 F3000 X19.899 Y173.765 E258.29967
G0 F9000 X20.018 Y173.319
G1 F3000 X61.461 Y214.762 E261.10673
G0 F9000 X61.907 Y214.642
G1 F3000 X20.138 Y172.873 E263.93588
G0 F9000 X20.257 Y172.427
G1 F3000 X62.353 Y214.522 E266.78714
G0 F9000 X62.799 Y214.403
G1 F3000 X20.377 Y171.981 E269.66052
G0 F9000 X20.496 Y171.534
G1 F3000 X63.245 Y214.283 E272.55605
G0 F9000 X63.691 Y214.164
G1 F3000 X20.616 Y171.088 E275.47369
G0 F9000 X20.735 Y170.642
G1 F3000 X64.138 Y214.044 E278.41348
G0 F9000 X64.584 Y213.925
G1 F3000 X20.855 Y170.196 E281.37538
G0 F9000 X20.975 Y169.75
G1 F3000 X65.03 Y213.805 E284.35937
G0 F9000 X65.476 Y213.686
G1 F3000 X21.095 Y169.304 E287.36547
G0 F9000 X21.214 Y168.858
G1 F3000 X65.922 Y213.566 E290.39368
G0 F9000 X66.369 Y213.447
G1 F3000 X21.334 Y168.412 E293.44405
G0 F9000 X21.453 Y167.966
G1 F3000 X66.815 Y213.327 E296.51652
G0 F9000 X67.261 Y213.208
G1 F3000 X21.573 Y167.519 E299.61115
G0 F9000 X21.692 Y167.073
G1 F3000 X67.707 Y213.088 E302.72789
G0 F9000 X68.153 Y212.969
G1 F3000 X21.812 Y166.627 E305.86675
G0 F9000 X21.931 Y166.181
G1 F3000 X68.599 Y212.849 E309.02772
G0 F9000 X69.046 Y212.73
G1 F3000 X22.051 Y165.735 E312.21085
G0 F9000 X22.17 Y165.289
G1 F3000 X69.491 Y212.61 E315.41605
G0 F9000 X69.937 Y212.49
G1 F3000 X22.29 Y164.842 E318.64336
G0 F9000 X22.409 Y164.396
G1 F3000 X70.383 Y212.371 E321.89283
G0 F9000 X70.83 Y212.251
G1 F3000 X22.529 Y163.95 E325.16441
G0 F9000 X22.648 Y163.504
